; generated by Slic3r 1.3.0 on 2019-02-26 at 13:37:28

; external perimeters extrusion width = 0.35mm (4.30mm^3/s)
; perimeters extrusion width = 0.35mm (4.91mm^3/s)
; infill extrusion width = 0.35mm (7.37mm^3/s)
; solid infill extrusion width = 0.35mm (6.14mm^3/s)
; top infill extrusion width = 0.35mm (3.07mm^3/s)

M107
M190 S108 ; set bed temperature and wait for it to be reached
; start of custom G-code
M108 S255 ; turn on M2 fans
M201 X400 Y400 Z400 ; reduce max accel to reduce ringing
G28 ; home all axes
G1 Y50 Z0.3 F9600 ; move forward to avoid clips
G1 X205 Z 10 ; move off platform
M109 S 250 ; wait for hotend to reach temp
G1 Z0.4; position nozzle
G92 E0; zero extruder
G1 F225 E25 ; extrude
G92 E0 ; zero extruder
G1 X190 Z0.1 E1.0 F1200 ; slow wipe
G1 X180 Z0.25 ; lift
; end of custom G-code
; Filament gcode

G21 ; set units to millimeters
G90 ; use absolute coordinates
M82 ; use absolute distances for extrusion
G92 E0
G1 Z0.350 F7800.000
G1 E-1.00000 F1200.00000
G92 E0
G1 X62.864 Y69.369 F7800.000
G1 E1.10000 F1200.00000
M201 X500 Y500
M204 P500 T500
G1 F1500
G1 X63.850 Y68.515 E1.17687
G1 X64.820 Y67.730 E1.25040
G1 X65.815 Y66.977 E1.32394
G1 X66.883 Y66.224 E1.40092
G1 X67.923 Y65.541 E1.47418
G1 X69.371 Y64.668 E1.57383
G1 X70.507 Y64.042 E1.65028
G1 X71.608 Y63.482 E1.72306
G1 X72.791 Y62.929 E1.79998
G1 X95.526 Y52.862 E3.26495
G1 X95.856 Y52.726 E3.28595
G1 X96.650 Y52.456 E3.33538
G1 X97.251 Y52.304 E3.37187
G1 X97.615 Y52.234 E3.39371
G1 X98.447 Y52.130 E3.44313
G1 X99.145 Y52.102 E3.48429
G1 X142.641 Y52.102 E6.04701
G1 X143.343 Y52.131 E6.08840
G1 X144.054 Y52.214 E6.13055
G1 X144.536 Y52.304 E6.15948
G1 X145.417 Y52.541 E6.21319
G1 X146.258 Y52.861 E6.26620
G1 X146.834 Y53.139 E6.30391
G1 X147.414 Y53.472 E6.34330
G1 X147.823 Y53.744 E6.37223
G1 X148.355 Y54.149 E6.41165
G1 X148.837 Y54.574 E6.44953
G1 X149.184 Y54.922 E6.47842
G1 X149.767 Y55.605 E6.53137
G1 X150.139 Y56.124 E6.56901
G1 X150.480 Y56.680 E6.60744
G1 X150.728 Y57.151 E6.63876
G1 X150.990 Y57.741 E6.67679
G1 X151.213 Y58.358 E6.71548
G1 X151.348 Y58.823 E6.74398
G1 X151.497 Y59.496 E6.78461
G1 X151.589 Y60.121 E6.82181
G1 X151.629 Y60.611 E6.85081
G1 X151.643 Y61.104 E6.87984
G1 X151.643 Y83.852 E8.22012
G1 X151.621 Y85.129 E8.29536
G1 X151.519 Y86.929 E8.40163
G1 X151.319 Y88.813 E8.51324
G1 X151.036 Y90.639 E8.62212
G1 X150.674 Y92.403 E8.72822
G1 X150.363 Y93.661 E8.80457
G1 X150.024 Y94.861 E8.87800
G1 X127.474 Y169.347 E13.46331
G1 X126.360 Y171.653 E13.61421
G1 X124.162 Y173.816 E13.79591
G1 X123.794 Y174.050 E13.82160
G1 X123.286 Y174.335 E13.85592
G1 X122.720 Y174.606 E13.89290
G1 X122.007 Y174.883 E13.93793
G1 X121.582 Y175.017 E13.96422
G1 X120.838 Y175.199 E14.00935
G1 X120.226 Y175.301 E14.04591
G1 X119.587 Y175.363 E14.08372
G1 X119.014 Y175.381 E14.11752
G1 X99.534 Y175.378 E15.26523
G1 X64.915 Y174.408 E17.30569
G1 X64.224 Y174.337 E17.34664
G1 X63.505 Y174.205 E17.38971
G1 X62.760 Y174.002 E17.43521
G1 X62.393 Y173.874 E17.45811
G1 X61.671 Y173.568 E17.50428
G1 X61.091 Y173.266 E17.54285
G1 X60.598 Y172.962 E17.57697
G1 X60.017 Y172.542 E17.61920
G1 X59.510 Y172.114 E17.65828
G1 X59.060 Y171.670 E17.69554
G1 X58.568 Y171.104 E17.73973
G1 X58.271 Y170.709 E17.76884
G1 X57.823 Y170.008 E17.81787
G1 X57.400 Y169.175 E17.87289
G1 X57.262 Y168.846 E17.89392
G1 X56.970 Y167.973 E17.94816
G1 X56.764 Y167.042 E18.00435
G1 X50.203 Y121.631 E20.70767
G1 X50.160 Y121.131 E20.73724
G1 X50.144 Y120.600 E20.76854
G1 X50.144 Y97.852 E22.10882
G1 X50.188 Y96.005 E22.21765
G1 X50.322 Y94.163 E22.32647
G1 X50.551 Y92.284 E22.43797
G1 X50.864 Y90.461 E22.54695
G1 X51.265 Y88.659 E22.65576
G1 X51.751 Y86.879 E22.76448
G1 X52.340 Y85.077 E22.87614
G1 X52.999 Y83.350 E22.98505
G1 X53.769 Y81.598 E23.09783
G1 X54.583 Y79.966 E23.20527
G1 X55.486 Y78.354 E23.31411
G1 X56.469 Y76.784 E23.42324
G1 X57.576 Y75.196 E23.53733
G1 X58.675 Y73.772 E23.64332
G1 X59.911 Y72.322 E23.75553
G1 X61.179 Y70.974 E23.86462
G1 X62.024 Y70.144 E23.93439
G1 X62.825 Y69.405 E23.99861
G1 X63.166 Y69.702 F7800.000
G1 F1500
G1 X64.139 Y68.860 E24.07444
G1 X65.095 Y68.086 E24.14694
G1 X66.081 Y67.340 E24.21975
G1 X67.134 Y66.597 E24.29566
G1 X68.161 Y65.923 E24.36806
G1 X69.597 Y65.057 E24.46686
G1 X70.719 Y64.439 E24.54233
G1 X71.807 Y63.886 E24.61422
G1 X72.973 Y63.340 E24.69011
G1 X95.707 Y53.274 E26.15496
G1 X96.022 Y53.144 E26.17505
G1 X96.773 Y52.889 E26.22179
G1 X97.345 Y52.744 E26.25653
G1 X97.693 Y52.677 E26.27743
G1 X98.480 Y52.579 E26.32416
G1 X99.145 Y52.552 E26.36337
G1 X142.641 Y52.552 E28.92608
G1 X143.310 Y52.579 E28.96552
G1 X143.982 Y52.658 E29.00537
G1 X144.442 Y52.744 E29.03297
G1 X145.279 Y52.969 E29.08400
G1 X146.077 Y53.273 E29.13436
G1 X146.626 Y53.538 E29.17025
G1 X147.174 Y53.853 E29.20751
G1 X147.565 Y54.112 E29.23510
G1 X148.071 Y54.498 E29.27261
G1 X148.527 Y54.900 E29.30843
G1 X148.857 Y55.231 E29.33599
G1 X149.412 Y55.880 E29.38630
G1 X149.763 Y56.372 E29.42189
G1 X150.088 Y56.901 E29.45847
G1 X150.324 Y57.349 E29.48832
G1 X150.572 Y57.907 E29.52428
G1 X150.785 Y58.495 E29.56111
G1 X150.913 Y58.938 E29.58830
G1 X151.054 Y59.575 E29.62672
G1 X151.141 Y60.169 E29.66212
G1 X151.193 Y61.104 E29.71728
G1 X151.193 Y83.852 E31.05755
G1 X151.175 Y85.013 E31.12598
G1 X151.070 Y86.894 E31.23697
G1 X150.879 Y88.712 E31.34466
G1 X150.593 Y90.559 E31.45480
G1 X150.235 Y92.305 E31.55979
G1 X149.929 Y93.546 E31.63510
G1 X149.593 Y94.731 E31.70765
G1 X127.043 Y169.217 E36.29295
G1 X125.951 Y171.454 E36.43965
G1 X123.912 Y173.442 E36.60743
G1 X123.560 Y173.665 E36.63197
G1 X123.078 Y173.936 E36.66456
G1 X122.538 Y174.194 E36.69980
G1 X121.863 Y174.457 E36.74252
G1 X121.456 Y174.585 E36.76765
G1 X120.750 Y174.758 E36.81046
G1 X120.167 Y174.855 E36.84530
G1 X119.560 Y174.914 E36.88119
G1 X119.014 Y174.931 E36.91343
G1 X99.546 Y174.928 E38.06040
G1 X64.981 Y173.961 E40.09773
G1 X64.286 Y173.892 E40.13890
G1 X63.606 Y173.767 E40.17962
G1 X62.918 Y173.580 E40.22162
G1 X62.549 Y173.452 E40.24466
G1 X61.920 Y173.188 E40.28484
G1 X61.288 Y172.860 E40.32674
G1 X60.814 Y172.566 E40.35963
G1 X60.293 Y172.188 E40.39756
G1 X59.815 Y171.782 E40.43451
G1 X59.425 Y171.401 E40.46662
G1 X58.895 Y170.792 E40.51421
G1 X58.619 Y170.423 E40.54135
G1 X58.213 Y169.785 E40.58589
G1 X57.812 Y168.995 E40.63814
G1 X57.680 Y168.680 E40.65823
G1 X57.403 Y167.851 E40.70972
G1 X57.208 Y166.967 E40.76305
G1 X50.650 Y121.580 E43.46498
G1 X50.609 Y121.103 E43.49318
G1 X50.594 Y120.600 E43.52283
G1 X50.594 Y97.852 E44.86310
G1 X50.638 Y96.026 E44.97068
G1 X50.770 Y94.206 E45.07825
G1 X50.996 Y92.350 E45.18835
G1 X51.306 Y90.549 E45.29607
G1 X51.702 Y88.767 E45.40363
G1 X52.183 Y87.007 E45.51110
G1 X52.764 Y85.228 E45.62135
G1 X53.415 Y83.521 E45.72901
G1 X54.176 Y81.790 E45.84040
G1 X54.980 Y80.177 E45.94659
G1 X55.873 Y78.584 E46.05417
G1 X56.844 Y77.032 E46.16205
G1 X57.937 Y75.464 E46.27466
G1 X59.024 Y74.056 E46.37948
G1 X60.244 Y72.625 E46.49028
G1 X61.498 Y71.292 E46.59809
G1 X62.334 Y70.471 E46.66716
G1 X63.127 Y69.738 E46.73079
G1 X63.468 Y70.036 F7800.000
G1 F1500
G1 X64.428 Y69.204 E46.80559
G1 X65.373 Y68.440 E46.87720
G1 X66.346 Y67.703 E46.94913
G1 X67.385 Y66.971 E47.02398
G1 X68.399 Y66.304 E47.09552
G1 X69.823 Y65.446 E47.19346
G1 X70.930 Y64.836 E47.26795
G1 X72.005 Y64.290 E47.33896
G1 X73.156 Y63.752 E47.41381
G1 X95.887 Y53.686 E48.87854
G1 X96.188 Y53.562 E48.89773
G1 X96.896 Y53.321 E48.94178
G1 X97.771 Y53.120 E48.99470
G1 X98.513 Y53.028 E49.03873
G1 X99.145 Y53.002 E49.07601
G1 X142.641 Y53.002 E51.63872
G1 X143.277 Y53.028 E51.67620
G1 X143.910 Y53.102 E51.71375
G1 X144.348 Y53.184 E51.74001
G1 X145.140 Y53.397 E51.78836
G1 X145.897 Y53.685 E51.83608
G1 X146.418 Y53.937 E51.87015
G1 X146.935 Y54.234 E51.90527
G1 X147.306 Y54.480 E51.93153
G1 X147.786 Y54.847 E51.96712
G1 X148.216 Y55.226 E52.00088
G1 X148.531 Y55.541 E52.02711
G1 X149.056 Y56.156 E52.07478
G1 X149.387 Y56.619 E52.10832
G1 X149.696 Y57.121 E52.14305
G1 X149.920 Y57.548 E52.17144
G1 X150.154 Y58.073 E52.20532
G1 X150.356 Y58.631 E52.24028
G1 X150.479 Y59.053 E52.26617
G1 X150.611 Y59.653 E52.30237
G1 X150.694 Y60.218 E52.33599
G1 X150.743 Y61.104 E52.38828
G1 X150.743 Y83.852 E53.72856
G1 X150.725 Y85.002 E53.79634
G1 X150.622 Y86.858 E53.90588
G1 X150.433 Y88.655 E54.01231
G1 X150.150 Y90.479 E54.12105
G1 X149.796 Y92.206 E54.22494
G1 X149.494 Y93.430 E54.29921
G1 X149.163 Y94.600 E54.37087
G1 X126.613 Y169.086 E58.95616
G1 X125.542 Y171.253 E59.09854
G1 X123.662 Y173.068 E59.25252
G1 X123.327 Y173.281 E59.27590
G1 X122.870 Y173.537 E59.30676
G1 X122.357 Y173.782 E59.34026
G1 X121.718 Y174.031 E59.38067
G1 X121.330 Y174.153 E59.40465
G1 X120.662 Y174.317 E59.44514
G1 X120.108 Y174.409 E59.47826
G1 X119.534 Y174.465 E59.51223
G1 X119.014 Y174.481 E59.54290
G1 X99.559 Y174.478 E60.68914
G1 X65.008 Y173.512 E62.72562
G1 X64.347 Y173.446 E62.76473
G1 X63.707 Y173.328 E62.80310
G1 X63.056 Y173.151 E62.84286
G1 X62.704 Y173.030 E62.86477
G1 X62.112 Y172.781 E62.90263
G1 X61.512 Y172.470 E62.94243
G1 X61.064 Y172.191 E62.97355
G1 X60.570 Y171.833 E63.00948
G1 X60.119 Y171.451 E63.04430
G1 X59.751 Y171.091 E63.07464
G1 X59.247 Y170.513 E63.11983
G1 X58.987 Y170.163 E63.14551
G1 X58.604 Y169.562 E63.18748
G1 X58.224 Y168.814 E63.23695
G1 X58.098 Y168.514 E63.25611
G1 X57.836 Y167.729 E63.30485
G1 X57.626 Y166.726 E63.36527
G1 X51.097 Y121.529 E66.05583
G1 X51.058 Y121.075 E66.08267
G1 X51.043 Y120.600 E66.11067
G1 X51.043 Y97.852 E67.45094
G1 X51.087 Y96.048 E67.55726
G1 X51.218 Y94.248 E67.66358
G1 X51.441 Y92.417 E67.77229
G1 X51.747 Y90.636 E67.87875
G1 X52.138 Y88.874 E67.98505
G1 X52.614 Y87.135 E68.09128
G1 X53.188 Y85.379 E68.20012
G1 X53.832 Y83.692 E68.30653
G1 X54.582 Y81.983 E68.41652
G1 X55.377 Y80.389 E68.52145
G1 X56.259 Y78.815 E68.62778
G1 X57.219 Y77.280 E68.73441
G1 X58.298 Y75.733 E68.84555
G1 X59.372 Y74.340 E68.94918
G1 X60.577 Y72.927 E69.05859
G1 X61.816 Y71.610 E69.16511
G1 X62.644 Y70.797 E69.23348
G1 X63.429 Y70.071 E69.29652
G1 X63.771 Y70.369 F7800.000
G1 F1500
G1 X64.717 Y69.549 E69.37029
G1 X65.652 Y68.792 E69.44116
G1 X66.612 Y68.066 E69.51206
G1 X67.635 Y67.345 E69.58585
G1 X68.638 Y66.686 E69.65653
G1 X70.049 Y65.835 E69.75361
G1 X71.142 Y65.233 E69.82713
G1 X72.203 Y64.694 E69.89725
G1 X73.338 Y64.163 E69.97107
G1 X96.067 Y54.098 E71.43568
G1 X96.354 Y53.980 E71.45397
G1 X97.019 Y53.754 E71.49532
G1 X97.850 Y53.563 E71.54554
G1 X98.546 Y53.476 E71.58689
G1 X99.145 Y53.452 E71.62221
G1 X142.641 Y53.452 E74.18492
G1 X143.171 Y53.471 E74.21615
G1 X144.014 Y53.577 E74.26623
G1 X144.592 Y53.705 E74.30110
G1 X145.002 Y53.825 E74.32629
G1 X145.717 Y54.098 E74.37136
G1 X146.210 Y54.336 E74.40362
G1 X146.696 Y54.615 E74.43660
G1 X147.048 Y54.849 E74.46152
G1 X147.502 Y55.196 E74.49521
G1 X147.906 Y55.551 E74.52691
G1 X148.204 Y55.850 E74.55180
G1 X148.701 Y56.432 E74.59683
G1 X149.012 Y56.866 E74.62832
G1 X149.304 Y57.342 E74.66119
G1 X149.517 Y57.746 E74.68812
G1 X149.736 Y58.240 E74.71994
G1 X149.927 Y58.768 E74.75303
G1 X150.044 Y59.168 E74.77760
G1 X150.168 Y59.732 E74.81160
G1 X150.247 Y60.266 E74.84343
G1 X150.293 Y61.104 E74.89286
G1 X150.293 Y83.852 E76.23313
G1 X150.275 Y84.991 E76.30027
G1 X150.173 Y86.823 E76.40836
G1 X149.986 Y88.598 E76.51353
G1 X149.707 Y90.398 E76.62087
G1 X149.357 Y92.108 E76.72366
G1 X149.059 Y93.314 E76.79688
G1 X148.732 Y94.470 E76.86767
G1 X126.182 Y168.956 E81.45295
G1 X125.134 Y171.049 E81.59087
G1 X123.412 Y172.694 E81.73117
G1 X123.093 Y172.896 E81.75340
G1 X122.662 Y173.138 E81.78253
G1 X122.176 Y173.371 E81.81428
G1 X121.573 Y173.605 E81.85238
G1 X121.204 Y173.721 E81.87521
G1 X120.574 Y173.875 E81.91338
G1 X120.049 Y173.963 E81.94478
G1 X119.507 Y174.016 E81.97683
G1 X119.014 Y174.031 E82.00594
G1 X99.571 Y174.029 E83.15144
G1 X65.035 Y173.063 E85.18707
G1 X64.409 Y173.001 E85.22412
G1 X63.808 Y172.890 E85.26015
G1 X63.193 Y172.723 E85.29767
G1 X62.860 Y172.608 E85.31844
G1 X62.304 Y172.374 E85.35398
G1 X61.736 Y172.080 E85.39168
G1 X61.313 Y171.817 E85.42104
G1 X60.847 Y171.478 E85.45497
G1 X60.423 Y171.120 E85.48766
G1 X60.077 Y170.780 E85.51622
G1 X59.600 Y170.233 E85.55900
G1 X59.354 Y169.903 E85.58323
G1 X58.995 Y169.339 E85.62263
G1 X58.636 Y168.633 E85.66932
G1 X58.516 Y168.348 E85.68755
G1 X58.269 Y167.607 E85.73353
G1 X58.071 Y166.661 E85.79048
G1 X51.544 Y121.477 E88.48027
G1 X51.493 Y120.600 E88.53206
G1 X51.493 Y97.852 E89.87234
G1 X51.536 Y96.069 E89.97741
G1 X51.666 Y94.290 E90.08247
G1 X51.886 Y92.483 E90.18978
G1 X52.189 Y90.723 E90.29498
G1 X52.575 Y88.982 E90.40003
G1 X53.045 Y87.264 E90.50501
G1 X53.611 Y85.530 E90.61245
G1 X54.248 Y83.863 E90.71761
G1 X54.989 Y82.175 E90.82619
G1 X55.774 Y80.600 E90.92988
G1 X56.646 Y79.045 E91.03495
G1 X57.595 Y77.528 E91.14032
G1 X58.659 Y76.001 E91.24999
G1 X59.721 Y74.625 E91.35245
G1 X60.910 Y73.229 E91.46046
G1 X62.134 Y71.928 E91.56569
G1 X62.953 Y71.123 E91.63336
G1 X63.732 Y70.404 E91.69581
G1 X64.073 Y70.702 F7800.000
G1 F1500
G1 X65.006 Y69.894 E91.76855
G1 X65.930 Y69.147 E91.83853
G1 X66.875 Y68.431 E91.90842
G1 X67.886 Y67.718 E91.98128
G1 X68.876 Y67.067 E92.05110
G1 X70.275 Y66.224 E92.14732
G1 X71.353 Y65.630 E92.21986
G1 X72.401 Y65.098 E92.28909
G1 X73.520 Y64.574 E92.36188
G1 X96.248 Y54.511 E93.82637
G1 X96.521 Y54.398 E93.84375
G1 X97.142 Y54.187 E93.88242
G1 X97.928 Y54.006 E93.92995
G1 X98.579 Y53.925 E93.96860
G1 X99.145 Y53.902 E94.00198
G1 X142.641 Y53.902 E96.56469
G1 X143.138 Y53.920 E96.59396
G1 X143.936 Y54.020 E96.64135
G1 X144.476 Y54.140 E96.67394
G1 X144.864 Y54.254 E96.69778
G1 X145.537 Y54.510 E96.74021
G1 X146.002 Y54.735 E96.77066
G1 X146.456 Y54.996 E96.80150
G1 X146.790 Y55.217 E96.82508
G1 X147.218 Y55.544 E96.85686
G1 X147.595 Y55.877 E96.88649
G1 X147.878 Y56.160 E96.91005
G1 X148.345 Y56.707 E96.95244
G1 X148.636 Y57.114 E96.98189
G1 X148.912 Y57.562 E97.01291
G1 X149.113 Y57.945 E97.03837
G1 X149.318 Y58.406 E97.06812
G1 X149.499 Y58.904 E97.09934
G1 X149.609 Y59.283 E97.12260
G1 X149.725 Y59.810 E97.15439
G1 X149.800 Y60.315 E97.18443
G1 X149.843 Y61.104 E97.23100
G1 X149.843 Y83.852 E98.57127
G1 X149.825 Y84.980 E98.63777
G1 X149.725 Y86.787 E98.74441
G1 X149.540 Y88.541 E98.84832
G1 X149.265 Y90.318 E98.95426
G1 X148.918 Y92.009 E99.05594
G1 X148.624 Y93.198 E99.12812
G1 X148.301 Y94.340 E99.19803
G1 X125.752 Y168.826 E103.78330
G1 X124.726 Y170.843 E103.91661
G1 X123.162 Y172.320 E104.04337
G1 X122.615 Y172.653 E104.08109
G1 X121.858 Y173.017 E104.13057
G1 X121.078 Y173.290 E104.17928
G1 X120.630 Y173.404 E104.20653
G1 X120.169 Y173.491 E104.23416
G1 X119.430 Y173.570 E104.27797
G1 X99.764 Y173.582 E105.43666
G1 X65.062 Y172.614 E107.48203
G1 X64.471 Y172.555 E107.51701
G1 X63.909 Y172.451 E107.55069
G1 X63.331 Y172.295 E107.58597
G1 X63.016 Y172.186 E107.60561
G1 X62.496 Y171.968 E107.63884
G1 X61.960 Y171.689 E107.67443
G1 X61.562 Y171.442 E107.70202
G1 X61.123 Y171.123 E107.73396
G1 X60.728 Y170.788 E107.76452
G1 X60.402 Y170.470 E107.79131
G1 X59.952 Y169.954 E107.83168
G1 X59.721 Y169.644 E107.85445
G1 X59.386 Y169.116 E107.89128
G1 X59.048 Y168.452 E107.93520
G1 X58.934 Y168.181 E107.95249
G1 X58.702 Y167.485 E107.99573
G1 X58.516 Y166.597 E108.04921
G1 X51.991 Y121.426 E110.73821
G1 X51.943 Y120.600 E110.78698
G1 X51.943 Y97.852 E112.12726
G1 X51.986 Y96.097 E112.23070
G1 X52.114 Y94.333 E112.33489
G1 X52.331 Y92.549 E112.44080
G1 X52.630 Y90.810 E112.54474
G1 X53.012 Y89.090 E112.64854
G1 X53.476 Y87.392 E112.75227
G1 X54.035 Y85.681 E112.85830
G1 X54.664 Y84.033 E112.96222
