; generated by Slic3r 1.3.0 on 2019-04-13 at 10:03:43

; external perimeters extrusion width = 0.35mm (3.68mm^3/s)
; perimeters extrusion width = 0.35mm (4.30mm^3/s)
; infill extrusion width = 0.35mm (4.91mm^3/s)
; solid infill extrusion width = 0.35mm (3.07mm^3/s)
; top infill extrusion width = 0.35mm (2.46mm^3/s)

M107
M190 S108 ; set bed temperature and wait for it to be reached
; start of custom G-code
M108 S255 ; turn on M2 fans
M201 X400 Y400 Z400 ; reduce max accel to reduce ringing
G28 ; home all axes
G1 Y50 Z0.3 F9600 ; move forward to avoid clips
G1 X205 Z 10 ; move off platform
M109 S 250 ; wait for hotend to reach temp
G1 Z0.4; position nozzle
G92 E0; zero extruder
G1 F225 E25 ; extrude
G92 E0 ; zero extruder
G1 X190 Z0.1 E1.0 F1200 ; slow wipe
G1 X180 Z0.25 ; lift
; end of custom G-code
; Filament gcode

G21 ; set units to millimeters
G90 ; use absolute coordinates
M82 ; use absolute distances for extrusion
G92 E0
G1 Z0.350 F6000.000
G1 E-1.00000 F1200.00000
G92 E0
G1 X85.735 Y107.246 F6000.000
G1 E1.10000 F1200.00000
M201 X500 Y500
M204 P500 T500
G1 F1500
G1 X85.897 Y107.137 E1.12044
G1 X89.790 Y105.525 E1.56183
G1 X89.985 Y105.486 E1.58270
G1 X92.088 Y105.279 E1.80405
G1 X111.088 Y105.279 E3.79439
G1 X113.195 Y105.487 E4.01616
G1 X113.386 Y105.525 E4.03659
G1 X117.279 Y107.137 E4.47800
G1 X117.442 Y107.246 E4.49854
G1 X120.421 Y110.225 E4.93985
G1 X120.529 Y110.387 E4.96029
G1 X122.142 Y114.280 E5.40169
G1 X122.180 Y114.474 E5.42235
G1 X122.387 Y116.558 E5.64178
G1 X122.411 Y137.422 E7.82733
G1 X122.204 Y139.528 E8.04911
G1 X122.166 Y139.720 E8.06954
G1 X120.553 Y143.613 E8.51093
G1 X120.444 Y143.777 E8.53160
G1 X117.465 Y146.754 E8.97279
G1 X117.303 Y146.863 E8.99323
G1 X113.410 Y148.475 E9.43463
G1 X113.219 Y148.513 E9.45506
G1 X111.112 Y148.721 E9.67684
G1 X92.112 Y148.721 E11.66718
G1 X90.005 Y148.513 E11.88895
G1 X89.814 Y148.475 E11.90939
G1 X85.921 Y146.863 E12.35079
G1 X85.758 Y146.754 E12.37127
G1 X82.779 Y143.775 E12.81264
G1 X82.671 Y143.613 E12.83309
G1 X81.058 Y139.720 E13.27447
G1 X81.020 Y139.525 E13.29526
G1 X80.813 Y137.442 E13.51457
G1 X80.789 Y116.578 E15.70012
G1 X80.996 Y114.472 E15.92189
G1 X81.034 Y114.280 E15.94240
G1 X82.647 Y110.387 E16.38373
G1 X82.755 Y110.225 E16.40416
G1 X85.697 Y107.283 E16.84008
G1 X86.179 Y107.911 F6000.000
G1 F1500
G1 X86.341 Y107.802 E16.86052
G1 X89.946 Y106.309 E17.26922
G1 X90.141 Y106.270 E17.29006
G1 X92.088 Y106.079 E17.49501
G1 X111.088 Y106.079 E19.48535
G1 X113.039 Y106.271 E19.69069
G1 X113.230 Y106.309 E19.71113
G1 X116.835 Y107.802 E20.11984
G1 X116.998 Y107.911 E20.14037
G1 X119.756 Y110.669 E20.54900
G1 X119.864 Y110.832 E20.56943
G1 X121.357 Y114.436 E20.97814
G1 X121.396 Y114.630 E20.99878
G1 X121.587 Y116.560 E21.20196
G1 X121.612 Y137.422 E23.38736
G1 X121.419 Y139.372 E23.59270
G1 X121.381 Y139.564 E23.61314
G1 X119.888 Y143.168 E24.02184
G1 X119.779 Y143.332 E24.04249
G1 X117.021 Y146.089 E24.45100
G1 X116.859 Y146.198 E24.47144
G1 X113.254 Y147.691 E24.88014
G1 X113.063 Y147.729 E24.90058
G1 X111.112 Y147.921 E25.10593
G1 X92.112 Y147.921 E27.09627
G1 X90.161 Y147.729 E27.30161
G1 X89.970 Y147.691 E27.32205
G1 X86.365 Y146.198 E27.73076
G1 X86.203 Y146.089 E27.75124
G1 X83.444 Y143.330 E28.15992
G1 X83.336 Y143.168 E28.18036
G1 X81.843 Y139.564 E28.58905
G1 X81.804 Y139.369 E28.60982
G1 X81.613 Y137.440 E28.81288
G1 X81.588 Y116.578 E30.99828
G1 X81.781 Y114.628 E31.20362
G1 X81.819 Y114.436 E31.22412
G1 X83.312 Y110.832 E31.63276
G1 X83.420 Y110.670 E31.65320
G1 X86.142 Y107.948 E32.05642
G1 X86.623 Y108.576 F6000.000
G1 F1500
G1 X86.786 Y108.467 E32.07686
G1 X90.102 Y107.094 E32.45286
G1 X90.297 Y107.055 E32.47367
G1 X92.088 Y106.879 E32.66223
G1 X111.088 Y106.879 E34.65257
G1 X112.883 Y107.056 E34.84148
G1 X113.074 Y107.094 E34.86192
G1 X116.390 Y108.467 E35.23794
G1 X116.553 Y108.576 E35.25846
G1 X119.091 Y111.114 E35.63440
G1 X119.199 Y111.276 E35.65484
G1 X120.573 Y114.592 E36.03085
G1 X120.611 Y114.785 E36.05147
G1 X120.787 Y116.561 E36.23840
G1 X120.812 Y137.422 E38.42364
G1 X120.635 Y139.216 E38.61256
G1 X120.597 Y139.408 E38.63300
G1 X119.223 Y142.724 E39.00900
G1 X119.114 Y142.888 E39.02963
G1 X116.577 Y145.424 E39.40547
G1 X116.414 Y145.533 E39.42591
G1 X113.098 Y146.906 E39.80192
G1 X112.907 Y146.944 E39.82235
G1 X111.112 Y147.121 E40.01128
G1 X92.112 Y147.121 E42.00162
G1 X90.317 Y146.944 E42.19054
G1 X90.126 Y146.906 E42.21097
G1 X86.810 Y145.533 E42.58699
G1 X86.647 Y145.424 E42.60746
G1 X84.109 Y142.886 E42.98345
G1 X84.001 Y142.724 E43.00390
G1 X82.627 Y139.408 E43.37989
G1 X82.589 Y139.214 E43.40063
G1 X82.413 Y137.439 E43.58745
G1 X82.388 Y116.578 E45.77269
G1 X82.565 Y114.784 E45.96160
G1 X82.603 Y114.592 E45.98210
G1 X83.977 Y111.276 E46.35805
G1 X84.085 Y111.114 E46.37849
G1 X86.586 Y108.613 E46.74902
G1 X87.068 Y109.241 F6000.000
G1 F1500
G1 X87.230 Y109.132 E46.76945
G1 X90.258 Y107.878 E47.11277
G1 X90.452 Y107.840 E47.13354
G1 X92.088 Y107.679 E47.30570
G1 X111.088 Y107.679 E49.29605
G1 X112.727 Y107.840 E49.46853
G1 X112.918 Y107.878 E49.48897
G1 X115.946 Y109.132 E49.83230
G1 X116.109 Y109.241 E49.85281
G1 X118.426 Y111.558 E50.19606
G1 X118.534 Y111.720 E50.21650
G1 X119.788 Y114.748 E50.55982
G1 X119.827 Y114.941 E50.58043
G1 X119.988 Y116.563 E50.75110
G1 X120.012 Y137.422 E52.93618
G1 X119.850 Y139.060 E53.10867
G1 X119.812 Y139.252 E53.12911
G1 X118.558 Y142.279 E53.47242
G1 X118.449 Y142.443 E53.49304
G1 X116.132 Y144.759 E53.83620
G1 X115.970 Y144.868 E53.85663
G1 X112.942 Y146.122 E54.19995
G1 X112.751 Y146.160 E54.22039
G1 X111.112 Y146.321 E54.39288
G1 X92.112 Y146.321 E56.38323
G1 X90.473 Y146.160 E56.55572
G1 X90.282 Y146.122 E56.57615
G1 X87.254 Y144.868 E56.91947
G1 X87.092 Y144.759 E56.93995
G1 X84.774 Y142.442 E57.28324
G1 X84.666 Y142.279 E57.30369
G1 X83.412 Y139.252 E57.64699
G1 X83.373 Y139.058 E57.66770
G1 X83.212 Y137.437 E57.83828
G1 X83.188 Y116.578 E60.02336
G1 X83.350 Y114.940 E60.19585
G1 X83.388 Y114.748 E60.21634
G1 X84.642 Y111.721 E60.55960
G1 X84.750 Y111.558 E60.58004
G1 X87.031 Y109.278 E60.91787
G1 X87.512 Y109.906 F6000.000
G1 F1500
G1 X87.674 Y109.797 E60.93831
G1 X90.414 Y108.663 E61.24893
G1 X90.608 Y108.624 E61.26967
G1 X92.088 Y108.479 E61.42544
G1 X111.088 Y108.479 E63.41578
G1 X112.571 Y108.625 E63.57184
G1 X112.762 Y108.663 E63.59228
G1 X115.501 Y109.797 E63.90291
G1 X115.664 Y109.906 E63.92342
G1 X117.760 Y112.003 E64.23398
G1 X117.869 Y112.165 E64.25442
G1 X119.004 Y114.904 E64.56504
G1 X119.042 Y115.097 E64.58564
G1 X119.188 Y116.564 E64.74006
G1 X119.212 Y137.422 E66.92498
G1 X119.066 Y138.904 E67.08105
G1 X119.028 Y139.096 E67.10148
G1 X117.893 Y141.835 E67.41210
G1 X117.784 Y141.999 E67.43270
G1 X115.688 Y144.094 E67.74318
G1 X115.526 Y144.203 E67.76362
G1 X112.786 Y145.337 E68.07424
G1 X112.595 Y145.375 E68.09468
G1 X111.112 Y145.521 E68.25075
G1 X92.112 Y145.521 E70.24109
G1 X90.629 Y145.375 E70.39715
G1 X90.438 Y145.337 E70.41759
G1 X87.699 Y144.203 E70.72822
G1 X87.536 Y144.094 E70.74869
G1 X85.440 Y141.997 E71.05929
G1 X85.331 Y141.835 E71.07973
G1 X84.196 Y139.096 E71.39034
G1 X84.158 Y138.902 E71.41103
G1 X84.012 Y137.436 E71.56537
G1 X83.988 Y116.578 E73.75029
G1 X84.134 Y115.096 E73.90635
G1 X84.172 Y114.904 E73.92684
G1 X85.307 Y112.165 E74.23741
G1 X85.415 Y112.003 E74.25785
G1 X87.475 Y109.943 E74.56298
G1 X87.957 Y110.571 F6000.000
G1 F1500
G1 X88.119 Y110.463 E74.58342
G1 X90.570 Y109.447 E74.86135
G1 X90.764 Y109.409 E74.88206
G1 X92.088 Y109.279 E75.02143
G1 X111.088 Y109.279 E77.01178
G1 X112.414 Y109.409 E77.15141
G1 X112.606 Y109.447 E77.17185
G1 X115.057 Y110.463 E77.44978
G1 X115.220 Y110.571 E77.47029
G1 X117.095 Y112.447 E77.74816
G1 X117.204 Y112.609 E77.76860
G1 X118.219 Y115.060 E78.04653
G1 X118.257 Y115.253 E78.06710
G1 X118.388 Y116.566 E78.20527
G1 X118.412 Y137.422 E80.39004
G1 X118.281 Y138.748 E80.52968
G1 X118.243 Y138.940 E80.55012
G1 X117.228 Y141.391 E80.82804
G1 X117.119 Y141.554 E80.84862
G1 X115.243 Y143.429 E81.12642
G1 X115.081 Y143.537 E81.14686
G1 X112.630 Y144.553 E81.42479
G1 X112.439 Y144.591 E81.44523
G1 X111.112 Y144.721 E81.58487
G1 X92.112 Y144.721 E83.57521
G1 X90.785 Y144.591 E83.71485
G1 X90.594 Y144.553 E83.73529
G1 X88.143 Y143.537 E84.01322
G1 X87.980 Y143.429 E84.03369
G1 X86.105 Y141.553 E84.31160
G1 X85.996 Y141.391 E84.33204
G1 X84.981 Y138.940 E84.60996
G1 X84.942 Y138.746 E84.63062
G1 X84.812 Y137.434 E84.76871
G1 X84.788 Y116.578 E86.95347
G1 X84.919 Y115.252 E87.09311
G1 X84.957 Y115.060 E87.11359
G1 X85.972 Y112.609 E87.39148
G1 X86.080 Y112.447 E87.41192
G1 X87.919 Y110.608 E87.68436
G1 E86.68436 F1200.00000
G92 E0
G1 X89.085 Y112.260 F6000.000
G1 E1.10000 F1200.00000
G1 F1500
G1 X89.638 Y111.891 E1.17460
G1 X90.506 Y111.532 E1.28003
G1 X91.389 Y111.356 E1.38110
G1 X91.854 Y111.310 E1.43359
G1 X111.322 Y111.310 E3.61893
G1 X111.788 Y111.356 E3.67152
G1 X112.669 Y111.532 E3.77236
G1 X113.538 Y111.891 E3.87783
G1 X114.481 Y112.522 E4.00522
G1 X115.145 Y113.186 E4.11062
G1 X115.775 Y114.128 E4.23790
G1 X116.135 Y114.996 E4.34335
G1 X116.310 Y115.879 E4.44435
G1 X116.356 Y116.344 E4.49689
G1 X116.356 Y124.813 E5.44747
G1 X116.310 Y125.279 E5.50006
G1 X116.135 Y126.160 E5.60090
G1 X115.836 Y126.881 E5.68856
G1 X115.836 Y127.060 E5.70865
G1 X116.159 Y127.839 E5.80329
G1 X116.334 Y128.722 E5.90429
G1 X116.380 Y129.188 E5.95682
G1 X116.380 Y137.656 E6.90741
G1 X116.334 Y138.122 E6.96000
G1 X116.159 Y139.003 E7.06084
G1 X115.799 Y139.871 E7.16631
G1 X115.169 Y140.815 E7.29374
G1 X114.505 Y141.479 E7.39912
G1 X113.562 Y142.109 E7.52640
G1 X112.694 Y142.468 E7.63184
G1 X111.813 Y142.644 E7.73274
G1 X111.346 Y142.690 E7.78534
G1 X91.878 Y142.690 E9.97073
G1 X91.412 Y142.644 E10.02332
G1 X90.530 Y142.468 E10.12418
G1 X89.662 Y142.109 E10.22964
G1 X88.719 Y141.479 E10.35700
G1 X88.055 Y140.814 E10.46242
G1 X87.425 Y139.871 E10.58975
G1 X87.065 Y139.004 E10.69517
G1 X86.890 Y138.121 E10.79620
G1 X86.844 Y137.655 E10.84871
G1 X86.844 Y129.187 E11.79928
G1 X86.890 Y128.721 E11.85186
G1 X87.065 Y127.839 E11.95279
G1 X87.364 Y127.119 E12.04035
G1 X87.364 Y126.940 E12.06045
G1 X87.041 Y126.161 E12.15511
G1 X86.866 Y125.278 E12.25614
G1 X86.820 Y124.812 E12.30864
G1 X86.820 Y116.344 E13.25921
G1 X86.866 Y115.878 E13.31180
G1 X87.041 Y114.996 E13.41273
G1 X87.401 Y114.129 E13.51814
G1 X88.031 Y113.186 E13.64544
G1 X88.695 Y112.521 E13.75089
G1 X89.042 Y112.290 E13.79772
G1 X89.562 Y112.973 F6000.000
G1 F1500
G1 X90.044 Y112.651 E13.86284
G1 X90.756 Y112.356 E13.94932
G1 X91.514 Y112.205 E14.03616
G1 X91.896 Y112.168 E14.07921
G1 X111.280 Y112.168 E16.25511
G1 X111.662 Y112.205 E16.29824
G1 X112.420 Y112.356 E16.38489
G1 X113.132 Y112.651 E16.47140
G1 X113.935 Y113.187 E16.57982
G1 X114.479 Y113.732 E16.66628
G1 X115.015 Y114.534 E16.77462
G1 X115.310 Y115.246 E16.86111
G1 X115.461 Y116.004 E16.94789
G1 X115.499 Y116.386 E16.99098
G1 X115.499 Y124.771 E17.93212
G1 X115.461 Y125.153 E17.97525
G1 X115.311 Y125.910 E18.06190
G1 X115.016 Y126.622 E18.14841
G1 X114.866 Y126.845 E18.17856
G1 X114.866 Y127.118 E18.20921
G1 X115.040 Y127.378 E18.24419
G1 X115.335 Y128.089 E18.33068
G1 X115.485 Y128.848 E18.41746
G1 X115.523 Y129.230 E18.46055
G1 X115.523 Y137.614 E19.40169
G1 X115.485 Y137.996 E19.44482
G1 X115.335 Y138.753 E19.53147
G1 X115.040 Y139.465 E19.61798
G1 X114.503 Y140.269 E19.72644
G1 X113.958 Y140.813 E19.81287
G1 X113.156 Y141.349 E19.92121
G1 X112.444 Y141.644 E20.00770
G1 X111.687 Y141.795 E20.09440
G1 X111.304 Y141.832 E20.13754
G1 X91.920 Y141.832 E22.31348
G1 X91.538 Y141.795 E22.35661
G1 X90.780 Y141.644 E22.44328
G1 X90.068 Y141.349 E22.52978
G1 X89.265 Y140.813 E22.63818
G1 X88.721 Y140.268 E22.72465
G1 X88.184 Y139.465 E22.83302
G1 X87.890 Y138.754 E22.91949
G1 X87.739 Y137.995 E23.00630
G1 X87.701 Y137.613 E23.04937
G1 X87.701 Y129.229 E23.99049
G1 X87.739 Y128.847 E24.03362
G1 X87.890 Y128.089 E24.12035
G1 X88.184 Y127.378 E24.20681
G1 X88.334 Y127.155 E24.23693
G1 X88.334 Y126.882 E24.26758
G1 X88.160 Y126.622 E24.30259
G1 X87.865 Y125.911 E24.38906
G1 X87.715 Y125.152 E24.47587
G1 X87.677 Y124.770 E24.51894
G1 X87.677 Y116.386 E25.46006
G1 X87.715 Y116.004 E25.50319
G1 X87.866 Y115.246 E25.58992
G1 X88.160 Y114.535 E25.67638
G1 X88.697 Y113.732 E25.78473
G1 X89.241 Y113.187 E25.87122
G1 X89.518 Y113.002 E25.90857
G1 X90.038 Y113.686 F6000.000
G1 F1500
G1 X90.450 Y113.410 E25.96422
G1 X91.006 Y113.180 E26.03175
G1 X91.640 Y113.054 E26.10435
G1 X91.938 Y113.025 E26.13797
G1 X111.238 Y113.025 E28.30442
G1 X111.537 Y113.054 E28.33810
G1 X112.170 Y113.180 E28.41056
G1 X112.726 Y113.410 E28.47811
G1 X113.388 Y113.853 E28.56757
G1 X113.813 Y114.278 E28.63508
G1 X114.256 Y114.940 E28.72447
G1 X114.486 Y115.496 E28.79200
G1 X114.612 Y116.130 E28.86456
G1 X114.642 Y116.429 E28.89821
G1 X114.642 Y124.728 E29.82990
G1 X114.612 Y125.027 E29.86358
G1 X114.486 Y125.660 E29.93604
G1 X114.256 Y126.216 E30.00358
G1 X113.836 Y126.845 E30.08854
G1 X113.836 Y127.118 E30.11919
G1 X114.280 Y127.784 E30.20899
G1 X114.510 Y128.339 E30.27653
G1 X114.636 Y128.973 E30.34909
G1 X114.666 Y129.272 E30.38274
G1 X114.666 Y137.572 E31.31442
G1 X114.636 Y137.870 E31.34811
G1 X114.510 Y138.503 E31.42056
G1 X114.280 Y139.059 E31.48811
G1 X113.837 Y139.722 E31.57760
G1 X113.412 Y140.147 E31.64509
G1 X112.750 Y140.590 E31.73448
G1 X112.194 Y140.820 E31.80201
G1 X111.561 Y140.946 E31.87451
G1 X111.262 Y140.975 E31.90820
G1 X91.962 Y140.975 E34.07468
G1 X91.663 Y140.946 E34.10836
G1 X91.030 Y140.820 E34.18083
G1 X90.474 Y140.590 E34.24838
G1 X89.812 Y140.147 E34.33782
G1 X89.387 Y139.722 E34.40534
G1 X88.944 Y139.059 E34.49476
G1 X88.714 Y138.504 E34.56228
G1 X88.588 Y137.869 E34.63486
G1 X88.558 Y137.571 E34.66848
G1 X88.558 Y129.272 E35.60016
G1 X88.588 Y128.973 E35.63384
G1 X88.714 Y128.339 E35.70636
G1 X88.944 Y127.784 E35.77387
G1 X89.364 Y127.155 E35.85881
G1 X89.364 Y126.882 E35.88946
G1 X88.920 Y126.216 E35.97928
G1 X88.690 Y125.660 E36.04680
G1 X88.564 Y125.026 E36.11938
G1 X88.534 Y124.728 E36.15301
G1 X88.534 Y116.428 E37.08468
G1 X88.564 Y116.130 E37.11836
G1 X88.690 Y115.496 E37.19088
G1 X88.920 Y114.941 E37.25839
G1 X89.362 Y114.278 E37.34779
G1 X89.788 Y113.853 E37.41533
G1 X89.994 Y113.715 E37.44320
G1 X90.514 Y114.399 F6000.000
G1 F1500
G1 X90.856 Y114.170 E37.48938
G1 X91.256 Y114.004 E37.53795
G1 X91.766 Y113.903 E37.59632
G1 X91.980 Y113.882 E37.62050
G1 X111.196 Y113.882 E39.77751
G1 X111.411 Y113.903 E39.80173
G1 X111.920 Y114.004 E39.86000
G1 X112.320 Y114.170 E39.90859
G1 X112.842 Y114.519 E39.97909
G1 X113.148 Y114.825 E40.02765
G1 X113.496 Y115.346 E40.09809
G1 X113.662 Y115.746 E40.14667
G1 X113.763 Y116.256 E40.20501
G1 X113.784 Y116.471 E40.22922
G1 X113.784 Y124.686 E41.15145
G1 X113.763 Y124.901 E41.17568
G1 X113.662 Y125.410 E41.23395
G1 X113.496 Y125.810 E41.28253
G1 X113.147 Y126.332 E41.35305
G1 X112.842 Y126.638 E41.40160
G1 X112.672 Y126.751 E41.42447
G1 X112.672 Y127.232 E41.47847
G1 X112.866 Y127.362 E41.50463
G1 X113.172 Y127.668 E41.55319
G1 X113.520 Y128.190 E41.62364
G1 X113.686 Y128.589 E41.67222
G1 X113.787 Y129.099 E41.73056
G1 X113.809 Y129.314 E41.75476
G1 X113.809 Y137.529 E42.67700
G1 X113.787 Y137.744 E42.70122
G1 X113.686 Y138.253 E42.75949
G1 X113.521 Y138.653 E42.80808
G1 X113.172 Y139.176 E42.87860
G1 X112.866 Y139.481 E42.92714
G1 X112.344 Y139.830 E42.99759
G1 X111.944 Y139.996 E43.04616
G1 X111.435 Y140.097 E43.10446
G1 X111.220 Y140.118 E43.12869
G1 X92.004 Y140.118 E45.28572
G1 X91.789 Y140.097 E45.30995
G1 X91.280 Y139.996 E45.36822
