; generated by Slic3r 1.2.9 on 2018-03-19 at 18:04:37

; external perimeters extrusion width = 0.35mm
; perimeters extrusion width = 0.35mm
; infill extrusion width = 0.35mm
; solid infill extrusion width = 0.35mm
; top infill extrusion width = 0.35mm
; support material extrusion width = 0.35mm

M190 S108 ; set bed temperature
; start of custom G-code
M108 S255 ; turn on M2 fans
M201 X400 Y400 Z400 ; reduce max accel to reduce ringing
G28 ; home all axes
G1 Y50 Z0.3 F9600 ; move forward to avoid clips
G1 X205 Z 10 ; move off platform
M109 S 250 ; wait for hotend to reach temp
G1 Z0.4; position nozzle
G92 E0; zero extruder
G1 F225 E25 ; extrude
G92 E0 ; zero extruder
G1 X190 Z0.1 E1.0 F1200 ; slow wipe
G1 X180 Z0.25 ; lift
; end of custom G-code
G21 ; set units to millimeters
G90 ; use absolute coordinates
M82 ; use absolute distances for extrusion
G92 E0
G1 Z0.350 F7800.000
G1 E-2.00000 F2400.00000
G92 E0
G1 X55.371 Y95.171 F7800.000
G1 E2.00000 F2400.00000
M204 S500
G1 X56.200 Y94.707 E2.05351 F1500.000
G1 X57.356 Y94.107 E2.12682
G1 X58.324 Y93.644 E2.18723
G1 X59.427 Y93.157 E2.25512
G1 X60.507 Y92.723 E2.32064
G1 X61.550 Y92.340 E2.38317
G1 X62.566 Y92.001 E2.44352
G1 X63.600 Y91.690 E2.50431
G1 X64.697 Y91.395 E2.56824
G1 X65.697 Y91.158 E2.62614
G1 X66.964 Y90.899 E2.69890
G1 X68.040 Y90.717 E2.76039
G1 X68.994 Y90.581 E2.81462
G1 X70.180 Y90.449 E2.88181
G1 X70.995 Y90.394 E2.92779
G1 X71.981 Y90.385 E2.98328
G1 X127.860 Y91.801 E6.13030 F1500.000
G1 X128.606 Y91.838 E6.17235
G1 X129.270 Y91.907 E6.20991
G1 X129.928 Y92.008 E6.24737
G1 X130.579 Y92.143 E6.28481
G1 X131.223 Y92.310 E6.32230
G1 X131.815 Y92.494 E6.35721
G1 X149.531 Y98.571 E7.41165
G1 X153.082 Y100.665 E7.64376
G1 X154.006 Y101.521 E7.71464
G1 X155.208 Y102.731 E7.81065
G1 X156.177 Y103.798 E7.89181
G1 X157.266 Y105.111 E7.98783
G1 X158.135 Y106.260 E8.06897
G1 X159.103 Y107.665 E8.16501
G1 X159.867 Y108.887 E8.24619
G1 X160.706 Y110.372 E8.34219
G1 X161.358 Y111.658 E8.42335
G1 X162.060 Y113.212 E8.51938
G1 X162.595 Y114.551 E8.60056
G1 X163.025 Y115.761 E8.67285
G1 X163.520 Y117.367 E8.76743
G1 X163.884 Y118.762 E8.84860
G1 X164.240 Y120.430 E8.94462
G1 X164.478 Y121.852 E9.02579
G1 X164.684 Y123.544 E9.12180
G1 X164.794 Y124.982 E9.20295
G1 X164.848 Y126.687 E9.29899
G1 X164.829 Y128.128 E9.38016
G1 X164.731 Y129.831 E9.47617
G1 X164.584 Y131.265 E9.55732
G1 X164.335 Y132.952 E9.65336
G1 X164.060 Y134.368 E9.73452
G1 X163.662 Y136.025 E9.83053
G1 X163.262 Y137.411 E9.91171
G1 X162.717 Y139.027 E10.00772
G1 X162.196 Y140.371 E10.08887
G1 X161.696 Y141.526 E10.15976
G1 X160.953 Y143.062 E10.25578
G1 X160.268 Y144.330 E10.33693
G1 X159.392 Y145.793 E10.43296
G1 X158.340 Y147.362 E10.53926
G1 X157.206 Y148.871 E10.64557
G1 X155.993 Y150.318 E10.75187
G1 X154.704 Y151.698 E10.85818
G1 X154.108 Y152.288 E10.90539
G1 X153.208 Y153.129 E10.97475
G1 X151.772 Y154.356 E11.08110
G1 X150.272 Y155.504 E11.18742
G1 X148.714 Y156.570 E11.29371
G1 X147.101 Y157.551 E11.40000
G1 X145.437 Y158.444 E11.50633
G1 X143.729 Y159.247 E11.61260
G1 X141.979 Y159.957 E11.71892
G1 X140.193 Y160.573 E11.82524
G1 X138.378 Y161.092 E11.93155
G1 X136.538 Y161.513 E12.03784
G1 X134.677 Y161.835 E12.14416
G1 X132.802 Y162.057 E12.25047
G1 X131.729 Y162.138 E12.31105
G1 X130.471 Y162.192 E12.38192
G1 X74.342 Y163.613 E15.54297
G1 X72.926 Y163.616 E15.62271
G1 X71.822 Y163.580 E15.68490
G1 X70.962 Y163.528 E15.73337
G1 X69.197 Y163.360 E15.83321
G1 X68.385 Y163.253 E15.87930
G1 X67.193 Y163.062 E15.94727
G1 X66.144 Y162.861 E16.00744
G1 X65.246 Y162.664 E16.05918
G1 X64.231 Y162.411 E16.11810
G1 X63.353 Y162.168 E16.16937
G1 X61.510 Y161.579 E16.27827
G1 X59.717 Y160.900 E16.38625
G1 X58.745 Y160.486 E16.44571
G1 X58.038 Y160.157 E16.48963
G1 X55.762 Y158.999 E16.63336
G1 X54.674 Y158.369 E16.70416
G1 X53.657 Y157.732 E16.77173
G1 X52.663 Y157.066 E16.83908
G1 X51.694 Y156.367 E16.90635
G1 X50.788 Y155.669 E16.97076
G1 X49.680 Y154.752 E17.05173
G1 X48.804 Y153.974 E17.11771
G1 X47.912 Y153.125 E17.18701
G1 X47.042 Y152.241 E17.25684
G1 X46.158 Y151.276 E17.33053
G1 X45.353 Y150.335 E17.40023
G1 X44.567 Y149.350 E17.47122
G1 X43.800 Y148.317 E17.54363
G1 X43.055 Y147.234 E17.61764
G1 X42.333 Y146.099 E17.69340
G1 X41.688 Y145.001 E17.76506
G1 X41.175 Y144.061 E17.82535
G1 X40.544 Y142.801 E17.90466
G1 X39.988 Y141.579 E17.98026
G1 X39.540 Y140.500 E18.04606
G1 X39.049 Y139.186 E18.12503
G1 X38.709 Y138.176 E18.18503
G1 X38.338 Y136.938 E18.25779
G1 X38.043 Y135.824 E18.32267
G1 X37.774 Y134.654 E18.39025
G1 X37.533 Y133.423 E18.46089
G1 X37.326 Y132.122 E18.53500
G1 X37.180 Y130.944 E18.60189
G1 X37.053 Y129.491 E18.68398
G1 X37.000 Y128.516 E18.73893
G1 X36.975 Y127.684 E18.78583
G1 X36.979 Y126.217 E18.86839
G1 X37.025 Y125.024 E18.93564
G1 X37.092 Y124.052 E18.99048
G1 X37.194 Y122.989 E19.05058
G1 X37.340 Y121.839 E19.11585
G1 X37.542 Y120.585 E19.18734
G1 X37.829 Y119.149 E19.26980
G1 X38.243 Y117.470 E19.36720
G1 X38.678 Y115.987 E19.45416
G1 X38.958 Y115.164 E19.50312
G1 X40.013 Y112.442 E19.66749
G1 X40.406 Y111.556 E19.72203
G1 X41.390 Y109.593 E19.84566
G1 X41.861 Y108.754 E19.89986
G1 X43.418 Y106.262 E20.06527
G1 X43.910 Y105.546 E20.11419
G1 X45.178 Y103.879 E20.23211
G1 X46.227 Y102.638 E20.32362
G1 X47.172 Y101.609 E20.40221
G1 X48.040 Y100.730 E20.47178
G1 X48.855 Y99.956 E20.53509
G1 X50.181 Y98.793 E20.63434
G1 X51.095 Y98.054 E20.70058
G1 X52.283 Y97.163 E20.78415
G1 X53.114 Y96.583 E20.84120
G1 X54.207 Y95.870 E20.91466
G1 X55.326 Y95.198 E20.98814
G1 X55.597 Y95.560 F7800.000
G1 X56.412 Y95.104 E21.04072 F1500.000
G1 X57.554 Y94.512 E21.11314
G1 X58.515 Y94.051 E21.17312
G1 X59.604 Y93.571 E21.24017
G1 X60.670 Y93.142 E21.30485
G1 X61.700 Y92.764 E21.36663
G1 X62.705 Y92.429 E21.42626
G1 X63.725 Y92.122 E21.48625
G1 X64.805 Y91.832 E21.54920
G1 X65.793 Y91.597 E21.60633
G1 X67.048 Y91.341 E21.67849
G1 X68.108 Y91.162 E21.73897
G1 X69.049 Y91.028 E21.79249
G1 X70.226 Y90.897 E21.85917
G1 X71.019 Y90.843 E21.90391
G1 X71.974 Y90.835 E21.95772
G1 X127.849 Y92.250 E25.10445 F1500.000
G1 X128.569 Y92.286 E25.14503
G1 X129.210 Y92.353 E25.18131
G1 X129.845 Y92.451 E25.21750
G1 X130.474 Y92.580 E25.25367
G1 X131.097 Y92.742 E25.28989
G1 X131.669 Y92.920 E25.32364
G1 X149.385 Y98.996 E26.37807
G1 X152.781 Y100.999 E26.60000
G1 X153.693 Y101.843 E26.66997
G1 X154.883 Y103.042 E26.76508
G1 X155.836 Y104.091 E26.84488
G1 X156.914 Y105.392 E26.94000
G1 X157.770 Y106.522 E27.01978
G1 X158.728 Y107.913 E27.11491
G1 X159.480 Y109.116 E27.19474
G1 X160.310 Y110.587 E27.28984
G1 X160.951 Y111.851 E27.36964
G1 X161.647 Y113.390 E27.46476
G1 X162.173 Y114.707 E27.54459
G1 X162.598 Y115.903 E27.61602
G1 X163.088 Y117.492 E27.70965
G1 X163.446 Y118.864 E27.78946
G1 X163.798 Y120.516 E27.88457
G1 X164.032 Y121.914 E27.96439
G1 X164.236 Y123.591 E28.05949
G1 X164.344 Y125.004 E28.13929
G1 X164.398 Y126.693 E28.23442
G1 X164.380 Y128.110 E28.31423
G1 X164.283 Y129.797 E28.40934
G1 X164.138 Y131.207 E28.48913
G1 X163.960 Y132.464 E28.56060
G1 X163.658 Y134.099 E28.65423
G1 X163.338 Y135.480 E28.73405
G1 X162.885 Y137.108 E28.82915
G1 X162.444 Y138.455 E28.90895
G1 X161.847 Y140.035 E29.00408
G1 X161.287 Y141.338 E29.08389
G1 X160.552 Y142.859 E29.17900
G1 X159.878 Y144.106 E29.25879
G1 X159.010 Y145.555 E29.35392
G1 X157.972 Y147.103 E29.45887
G1 X156.852 Y148.594 E29.56382
G1 X155.654 Y150.022 E29.66876
G1 X154.382 Y151.384 E29.77371
G1 X153.797 Y151.963 E29.82002
G1 X152.909 Y152.793 E29.88848
G1 X151.491 Y154.005 E29.99347
G1 X150.011 Y155.138 E30.09843
G1 X148.473 Y156.191 E30.20337
G1 X146.880 Y157.159 E30.30830
G1 X145.238 Y158.041 E30.41327
G1 X143.551 Y158.834 E30.51819
G1 X141.824 Y159.535 E30.62315
G1 X140.061 Y160.143 E30.72811
G1 X138.269 Y160.656 E30.83306
G1 X136.452 Y161.071 E30.93800
G1 X134.615 Y161.389 E31.04296
G1 X132.764 Y161.609 E31.14791
G1 X131.699 Y161.689 E31.20804
G1 X130.457 Y161.742 E31.27801
G1 X74.331 Y163.163 E34.43891
G1 X72.936 Y163.166 E34.51744
G1 X71.840 Y163.130 E34.57915
G1 X70.993 Y163.079 E34.62697
G1 X69.253 Y162.913 E34.72535
G1 X68.451 Y162.808 E34.77086
G1 X67.274 Y162.620 E34.83799
G1 X66.234 Y162.420 E34.89765
G1 X65.351 Y162.226 E34.94852
G1 X63.481 Y161.737 E35.05735
G1 X61.661 Y161.155 E35.16492
G1 X59.889 Y160.485 E35.27158
G1 X58.927 Y160.075 E35.33048
G1 X58.239 Y159.755 E35.37316
G1 X55.978 Y158.604 E35.51602
G1 X54.906 Y157.983 E35.58577
G1 X53.902 Y157.355 E35.65242
G1 X52.922 Y156.697 E35.71888
G1 X51.965 Y156.008 E35.78526
G1 X51.069 Y155.318 E35.84893
G1 X49.972 Y154.410 E35.92914
G1 X49.106 Y153.640 E35.99433
G1 X48.226 Y152.803 E36.06274
G1 X47.368 Y151.930 E36.13166
G1 X46.496 Y150.979 E36.20430
G1 X45.701 Y150.050 E36.27316
G1 X44.924 Y149.076 E36.34328
G1 X44.167 Y148.056 E36.41481
G1 X43.430 Y146.986 E36.48790
G1 X42.717 Y145.865 E36.56271
G1 X42.079 Y144.778 E36.63366
G1 X41.575 Y143.854 E36.69296
G1 X40.951 Y142.609 E36.77134
G1 X40.400 Y141.398 E36.84624
G1 X39.959 Y140.337 E36.91096
G1 X39.472 Y139.034 E36.98925
G1 X39.136 Y138.036 E37.04854
G1 X38.771 Y136.819 E37.12009
G1 X38.480 Y135.718 E37.18418
G1 X38.214 Y134.563 E37.25093
G1 X37.976 Y133.347 E37.32069
G1 X37.772 Y132.063 E37.39388
G1 X37.627 Y130.892 E37.46028
G1 X37.502 Y129.457 E37.54138
G1 X37.450 Y128.501 E37.59529
G1 X37.425 Y127.680 E37.64156
G1 X37.429 Y126.223 E37.72355
G1 X37.474 Y125.053 E37.78949
G1 X37.540 Y124.093 E37.84368
G1 X37.640 Y123.044 E37.90301
G1 X37.784 Y121.909 E37.96744
G1 X37.984 Y120.671 E38.03803
G1 X38.267 Y119.254 E38.11938
G1 X38.675 Y117.596 E38.21549
G1 X39.109 Y116.114 E38.30244
G1 X39.377 Y115.327 E38.34926
G1 X40.433 Y112.605 E38.51362
G1 X40.808 Y111.758 E38.56577
G1 X41.792 Y109.795 E38.68940
G1 X42.243 Y108.992 E38.74122
G1 X43.800 Y106.501 E38.90663
G1 X44.270 Y105.816 E38.95340
G1 X45.523 Y104.167 E39.06998
G1 X46.560 Y102.940 E39.16043
G1 X47.493 Y101.924 E39.23810
G1 X48.351 Y101.055 E39.30685
G1 X49.157 Y100.290 E39.36940
G1 X50.472 Y99.136 E39.46792
G1 X51.370 Y98.410 E39.53290
G1 X52.549 Y97.527 E39.61586
G1 X53.364 Y96.958 E39.67183
G1 X54.449 Y96.249 E39.74477
G1 X55.552 Y95.587 E39.81721
G1 X55.823 Y95.949 F7800.000
G1 X56.624 Y95.501 E39.86886 F1500.000
G1 X57.751 Y94.916 E39.94039
G1 X58.705 Y94.459 E39.99994
G1 X59.781 Y93.984 E40.06614
G1 X60.834 Y93.561 E40.13001
G1 X61.851 Y93.188 E40.19102
G1 X62.844 Y92.856 E40.24993
G1 X63.851 Y92.554 E40.30912
G1 X64.914 Y92.268 E40.37109
G1 X65.888 Y92.037 E40.42746
G1 X67.133 Y91.783 E40.49903
G1 X68.175 Y91.606 E40.55849
G1 X69.103 Y91.475 E40.61128
G1 X70.271 Y91.344 E40.67745
G1 X71.042 Y91.293 E40.72096
G1 X71.968 Y91.285 E40.77310
G1 X127.838 Y92.700 E43.91954 F1500.000
G1 X128.531 Y92.735 E43.95864
G1 X129.150 Y92.798 E43.99365
G1 X129.763 Y92.893 E44.02857
G1 X130.370 Y93.018 E44.06346
G1 X130.971 Y93.174 E44.09841
G1 X131.524 Y93.346 E44.13100
G1 X149.239 Y99.422 E45.18543
G1 X152.479 Y101.332 E45.39717
G1 X153.379 Y102.166 E45.46624
G1 X154.558 Y103.353 E45.56044
G1 X155.495 Y104.385 E45.63889
G1 X156.563 Y105.673 E45.73310
G1 X157.404 Y106.784 E45.81153
G1 X158.353 Y108.162 E45.90575
G1 X159.092 Y109.344 E45.98422
G1 X159.914 Y110.801 E46.07842
G1 X160.545 Y112.043 E46.15686
G1 X161.234 Y113.568 E46.25108
G1 X161.751 Y114.863 E46.32955
G1 X162.170 Y116.042 E46.40003
G1 X162.656 Y117.617 E46.49280
G1 X163.007 Y118.965 E46.57126
G1 X163.357 Y120.602 E46.66546
G1 X163.587 Y121.976 E46.74393
G1 X163.789 Y123.637 E46.83812
G1 X163.895 Y125.026 E46.91656
G1 X163.942 Y126.253 E46.98566
G1 X163.935 Y127.926 E47.07985
G1 X163.868 Y129.318 E47.15830
G1 X163.712 Y130.984 E47.25251
G1 X163.521 Y132.363 E47.33093
G1 X163.217 Y134.009 E47.42517
G1 X162.903 Y135.367 E47.50363
G1 X162.581 Y136.551 E47.57270
G1 X162.075 Y138.146 E47.66689
G1 X161.594 Y139.454 E47.74536
G1 X160.947 Y140.997 E47.83955
G1 X160.352 Y142.257 E47.91802
G1 X159.570 Y143.736 E48.01222
G1 X158.865 Y144.938 E48.09068
G1 X157.860 Y146.480 E48.19427
G1 X157.244 Y147.342 E48.25394
G1 X156.757 Y147.985 E48.29933
G1 X156.006 Y148.921 E48.36691
G1 X155.315 Y149.726 E48.42661
G1 X154.059 Y151.070 E48.53020
G1 X152.733 Y152.345 E48.63380
G1 X151.340 Y153.548 E48.73738
G1 X149.884 Y154.674 E48.84098
G1 X148.371 Y155.720 E48.94457
G1 X146.804 Y156.684 E49.04816
G1 X145.187 Y157.563 E49.15176
G1 X144.464 Y157.920 E49.19714
G1 X143.373 Y158.421 E49.26473
G1 X141.668 Y159.113 E49.36833
G1 X139.929 Y159.713 E49.47194
G1 X138.159 Y160.219 E49.57553
G1 X136.366 Y160.630 E49.67911
G1 X134.553 Y160.944 E49.78271
G1 X132.726 Y161.160 E49.88631
G1 X131.669 Y161.240 E49.94598
G1 X130.443 Y161.292 E50.01505
G1 X74.319 Y162.713 E53.17580
G1 X72.946 Y162.716 E53.25312
G1 X71.859 Y162.681 E53.31436
G1 X71.023 Y162.630 E53.36153
G1 X69.309 Y162.467 E53.45845
G1 X67.496 Y162.202 E53.56162
G1 X66.603 Y162.036 E53.61273
G1 X65.604 Y161.823 E53.67022
G1 X64.730 Y161.611 E53.72087
G1 X63.754 Y161.347 E53.77779
G1 X61.945 Y160.778 E53.88455
G1 X60.178 Y160.117 E53.99078
G1 X58.745 Y159.498 E54.07868
G1 X56.435 Y158.341 E54.22412
G1 X55.501 Y157.814 E54.28447
G1 X54.423 Y157.155 E54.35562
G1 X53.273 Y156.393 E54.43330
G1 X52.364 Y155.744 E54.49617
G1 X51.430 Y155.030 E54.56239
G1 X50.523 Y154.289 E54.62832
G1 X49.620 Y153.499 E54.69581
G1 X48.747 Y152.683 E54.76314
G1 X47.895 Y151.831 E54.83096
G1 X47.077 Y150.955 E54.89843
G1 X46.288 Y150.051 E54.96601
G1 X45.516 Y149.104 E55.03478
G1 X44.763 Y148.113 E55.10486
G1 X44.031 Y147.074 E55.17641
G1 X43.376 Y146.074 E55.24370
G1 X42.697 Y144.952 E55.31755
G1 X42.047 Y143.785 E55.39277
G1 X41.568 Y142.850 E55.45190
G1 X41.002 Y141.649 E55.52666
G1 X40.575 Y140.658 E55.58740
G1 X40.068 Y139.360 E55.66587
G1 X39.686 Y138.269 E55.73096
G1 X39.357 Y137.224 E55.79261
G1 X38.954 Y135.756 E55.87830
G1 X38.688 Y134.624 E55.94378
G1 X38.449 Y133.432 E56.01221
G1 X38.243 Y132.174 E56.08399
G1 X38.074 Y130.841 E56.15964
G1 X37.991 Y129.959 E56.20953
G1 X37.908 Y128.680 E56.28171
G1 X37.875 Y127.676 E56.33825
G1 X37.879 Y126.230 E56.41967
G1 X37.922 Y125.082 E56.48430
G1 X37.988 Y124.134 E56.53784
G1 X38.087 Y123.098 E56.59640
G1 X38.229 Y121.978 E56.65999
G1 X38.426 Y120.756 E56.72967
G1 X38.704 Y119.358 E56.80992
G1 X39.107 Y117.723 E56.90474
G1 X39.541 Y116.241 E56.99169
G1 X39.796 Y115.489 E57.03636
G1 X40.852 Y112.768 E57.20072
G1 X41.211 Y111.960 E57.25048
G1 X42.194 Y109.996 E57.37411
G1 X42.624 Y109.231 E57.42355
G1 X44.181 Y106.739 E57.58896
G1 X44.630 Y106.085 E57.63358
G1 X45.868 Y104.456 E57.74882
G1 X46.893 Y103.243 E57.83822
G1 X47.815 Y102.239 E57.91495
G1 X48.662 Y101.380 E57.98289
G1 X49.458 Y100.624 E58.04469
G1 X50.764 Y99.479 E58.14246
G1 X51.644 Y98.767 E58.20618
G1 X52.814 Y97.890 E58.28852
G1 X53.613 Y97.332 E58.34342
G1 X54.691 Y96.629 E58.41584
G1 X55.778 Y95.976 E58.48725
G1 X56.050 Y96.338 F7800.000
G1 X56.836 Y95.898 E58.53797 F1500.000
G1 X57.949 Y95.320 E58.60860
G1 X58.896 Y94.866 E58.66773
G1 X59.958 Y94.398 E58.73308
G1 X60.997 Y93.980 E58.79612
G1 X62.002 Y93.612 E58.85638
G1 X62.982 Y93.284 E58.91456
G1 X63.976 Y92.986 E58.97295
G1 X65.022 Y92.705 E59.03394
G1 X65.983 Y92.477 E59.08955
G1 X67.218 Y92.225 E59.16052
G1 X68.146 Y92.066 E59.21352
G1 X69.158 Y91.921 E59.27105
G1 X70.317 Y91.792 E59.33670
G1 X71.066 Y91.742 E59.37898
G1 X71.962 Y91.735 E59.42943
G1 X127.826 Y93.150 E62.57559 F1500.000
G1 X128.494 Y93.183 E62.61322
G1 X129.090 Y93.244 E62.64695
G1 X129.680 Y93.335 E62.68059
G1 X130.265 Y93.456 E62.71422
G1 X130.844 Y93.605 E62.74789
G1 X131.378 Y93.771 E62.77932
G1 X149.094 Y99.847 E63.83376
