; generated by Slic3r 1.2.9 on 2018-03-19 at 12:29:25

; external perimeters extrusion width = 0.35mm
; perimeters extrusion width = 0.35mm
; infill extrusion width = 0.35mm
; solid infill extrusion width = 0.35mm
; top infill extrusion width = 0.35mm

M190 S108 ; set bed temperature
; start of custom G-code
M108 S255 ; turn on M2 fans
M201 X400 Y400 Z400 ; reduce max accel to reduce ringing
G28 ; home all axes
G1 Y50 Z0.3 F9600 ; move forward to avoid clips
G1 X205 Z 10 ; move off platform
M109 S 250 ; wait for hotend to reach temp
G1 Z0.4; position nozzle
G92 E0; zero extruder
G1 F225 E25 ; extrude
G92 E0 ; zero extruder
G1 X190 Z0.1 E1.0 F1200 ; slow wipe
G1 X180 Z0.25 ; lift
; end of custom G-code
G21 ; set units to millimeters
G90 ; use absolute coordinates
M82 ; use absolute distances for extrusion
G92 E0
G1 Z0.350 F7800.000
G1 X27.748 Y62.011 F7800.000
M204 S500
G1 X28.720 Y61.602 E0.05939 F1500.000
G1 X29.789 Y61.219 E0.12335
G1 X30.608 Y60.971 E0.17150
G1 X31.710 Y60.695 E0.23544
G1 X32.825 Y60.481 E0.29939
G1 X33.665 Y60.363 E0.34716
G1 X34.772 Y60.261 E0.40973
G1 X35.651 Y60.223 E0.45926
G1 X147.683 Y60.221 E6.76661
G1 X148.481 Y60.257 E6.81159 F1500.000
G1 X149.136 Y60.321 E6.84865
G1 X150.233 Y60.499 E6.91124
G1 X151.027 Y60.684 E6.95710
G1 X152.090 Y61.011 E7.01976
G1 X152.850 Y61.303 E7.06558
G1 X153.437 Y61.565 E7.10177
G1 X154.423 Y62.080 E7.16438
G1 X155.327 Y62.646 E7.22442
G1 X170.568 Y73.048 E8.26331
G1 X172.133 Y74.232 E8.37378
G1 X173.271 Y75.170 E8.45682
G1 X174.730 Y76.483 E8.56731
G1 X176.124 Y77.865 E8.67780
G1 X177.448 Y79.313 E8.78830
G1 X178.701 Y80.824 E8.89880
G1 X179.786 Y82.263 E9.00027
G1 X180.892 Y83.883 E9.11069
G1 X181.583 Y84.989 E9.18411
G1 X181.999 Y85.696 E9.23030
G1 X182.633 Y86.841 E9.30397
G1 X183.156 Y87.856 E9.36829
G1 X183.988 Y89.637 E9.47893
G1 X184.492 Y90.841 E9.55245
G1 X184.789 Y91.606 E9.59865
G1 X185.177 Y92.684 E9.66312
G1 X185.581 Y93.921 E9.73638
G1 X186.116 Y95.818 E9.84737
G1 X186.418 Y97.087 E9.92080
G1 X186.588 Y97.890 E9.96700
G1 X186.797 Y99.016 E10.03150
G1 X186.997 Y100.311 E10.10529
G1 X187.153 Y101.600 E10.17838
G1 X187.231 Y102.422 E10.22483
G1 X187.312 Y103.572 E10.28974
G1 X187.363 Y104.875 E10.36315
G1 X187.373 Y106.173 E10.43624
G1 X187.357 Y106.998 E10.48268
G1 X187.307 Y108.145 E10.54737
G1 X187.211 Y109.439 E10.62040
G1 X186.986 Y111.401 E10.73158
G1 X186.785 Y112.687 E10.80484
G1 X186.637 Y113.494 E10.85103
G1 X186.404 Y114.612 E10.91536
G1 X186.098 Y115.884 E10.98901
G1 X185.753 Y117.142 E11.06243
G1 X185.513 Y117.931 E11.10888
G1 X184.936 Y119.632 E11.21003
G1 X184.405 Y121.008 E11.29304
G1 X183.692 Y122.657 E11.39420
G1 X183.052 Y123.986 E11.47720
G1 X182.208 Y125.572 E11.57835
G1 X181.463 Y126.844 E11.66138
G1 X180.495 Y128.352 E11.76227
G1 X179.742 Y129.432 E11.83637
G1 X178.859 Y130.609 E11.91922
G1 X177.724 Y132.002 E12.02036
G1 X176.747 Y133.106 E12.10340
G1 X175.500 Y134.405 E12.20475
G1 X174.439 Y135.424 E12.28756
G1 X173.094 Y136.615 E12.38870
G1 X171.951 Y137.547 E12.47173
G1 X170.514 Y138.625 E12.57287
G1 X168.890 Y139.729 E12.68348
G1 X168.197 Y140.166 E12.72956
G1 X167.103 Y140.817 E12.80126
G1 X118.240 Y168.621 E15.96642
G1 X115.584 Y169.674 E16.12724
G1 X112.741 Y169.954 E16.28806
G1 X110.900 Y169.708 E16.39265
G1 X55.747 Y157.178 E19.57690
G1 X52.127 Y155.572 E19.79986
G1 X27.637 Y138.364 E21.48495
G1 X26.589 Y137.570 E21.55899
G1 X25.568 Y136.741 E21.63302
G1 X24.574 Y135.880 E21.70705
G1 X23.609 Y134.987 E21.78109
G1 X22.673 Y134.064 E21.85512
G1 X21.768 Y133.110 E21.92915
G1 X20.894 Y132.127 E22.00319
G1 X19.748 Y130.732 E22.10483
G1 X18.568 Y129.151 E22.21587
G1 X17.467 Y127.514 E22.32692
G1 X16.266 Y124.923 E22.48774
G1 X15.826 Y121.951 E22.65689
G1 X15.826 Y80.468 E24.99239
G1 X15.867 Y79.189 E25.06442
G1 X15.970 Y78.058 E25.12837
G1 X16.137 Y76.934 E25.19232
G1 X16.433 Y75.549 E25.27204
G1 X16.827 Y74.182 E25.35217
G1 X17.313 Y72.852 E25.43190
G1 X17.770 Y71.812 E25.49585
G1 X18.423 Y70.547 E25.57597
G1 X19.159 Y69.338 E25.65570
G1 X19.810 Y68.407 E25.71965
G1 X20.698 Y67.294 E25.79977
G1 X21.460 Y66.452 E25.86372
G1 X22.458 Y65.482 E25.94206
G1 X23.338 Y64.726 E26.00739
G1 X24.241 Y64.037 E26.07134
G1 X25.424 Y63.246 E26.15146
G1 X26.654 Y62.544 E26.23121
G1 X27.700 Y62.032 E26.29673
G1 X27.931 Y62.421 F7800.000
G1 X28.886 Y62.020 E26.35506 F1500.000
G1 X29.932 Y61.646 E26.41759
G1 X30.726 Y61.405 E26.46433
G1 X31.804 Y61.135 E26.52685
G1 X32.894 Y60.926 E26.58937
G1 X33.722 Y60.809 E26.63643
G1 X34.803 Y60.710 E26.69757
G1 X35.657 Y60.673 E26.74570
G1 X147.672 Y60.670 E33.05210
G1 X148.450 Y60.706 E33.09592 F1500.000
G1 X149.084 Y60.768 E33.13182
G1 X150.141 Y60.939 E33.19209
G1 X150.914 Y61.120 E33.23678
G1 X151.939 Y61.435 E33.29712
G1 X152.679 Y61.719 E33.34178
G1 X153.247 Y61.973 E33.37681
G1 X154.196 Y62.469 E33.43709
G1 X155.073 Y63.018 E33.49534
G1 X170.308 Y73.415 E34.53376
G1 X171.855 Y74.586 E34.64300
G1 X172.976 Y75.510 E34.72481
G1 X174.419 Y76.808 E34.83407
G1 X175.797 Y78.174 E34.94332
G1 X177.107 Y79.606 E35.05259
G1 X178.346 Y81.100 E35.16186
G1 X179.422 Y82.528 E35.26249
G1 X180.515 Y84.130 E35.37169
G1 X181.199 Y85.223 E35.44430
G1 X181.608 Y85.918 E35.48967
G1 X182.235 Y87.050 E35.56252
G1 X182.755 Y88.059 E35.62643
G1 X183.106 Y88.784 E35.67180
G1 X183.639 Y89.963 E35.74463
G1 X184.134 Y91.159 E35.81749
G1 X184.536 Y92.220 E35.88140
G1 X184.803 Y92.981 E35.92677
G1 X185.199 Y94.212 E35.99961
G1 X185.514 Y95.303 E36.06351
G1 X185.834 Y96.552 E36.13611
G1 X186.239 Y98.455 E36.24563
G1 X186.457 Y99.725 E36.31822
G1 X186.572 Y100.527 E36.36384
G1 X186.708 Y101.664 E36.42826
G1 X186.820 Y102.939 E36.50034
G1 X186.914 Y104.888 E36.61018
G1 X186.923 Y106.171 E36.68246
G1 X186.907 Y106.982 E36.72808
G1 X186.858 Y108.122 E36.79234
G1 X186.762 Y109.415 E36.86533
G1 X186.626 Y110.689 E36.93745
G1 X186.519 Y111.491 E36.98305
G1 X186.341 Y112.613 E37.04696
G1 X186.100 Y113.884 E37.11981
G1 X185.819 Y115.142 E37.19240
G1 X185.622 Y115.929 E37.23804
G1 X185.318 Y117.026 E37.30216
G1 X184.935 Y118.258 E37.37479
G1 X184.457 Y119.630 E37.45656
G1 X183.803 Y121.287 E37.55690
G1 X183.216 Y122.616 E37.63869
G1 X182.430 Y124.215 E37.73900
G1 X181.736 Y125.492 E37.82080
G1 X180.826 Y127.018 E37.92088
G1 X180.116 Y128.110 E37.99418
G1 X179.284 Y129.297 E38.07577
G1 X178.204 Y130.714 E38.17609
G1 X177.277 Y131.833 E38.25789
G1 X176.082 Y133.160 E38.35843
G1 X175.070 Y134.197 E38.44001
G1 X173.775 Y135.421 E38.54033
G1 X172.680 Y136.375 E38.62212
G1 X171.290 Y137.491 E38.72245
G1 X170.121 Y138.353 E38.80423
G1 X168.511 Y139.437 E38.91350
G1 X166.880 Y140.426 E39.02088
G1 X118.017 Y168.230 E42.18604
G1 X115.418 Y169.252 E42.34328
G1 X112.636 Y169.498 E42.50051
G1 X111.000 Y169.269 E42.59352
G1 X55.846 Y156.740 E45.77776
G1 X52.386 Y155.203 E45.99094
G1 X27.905 Y138.003 E47.67537
G1 X26.869 Y137.217 E47.74858
G1 X25.859 Y136.398 E47.82178
G1 X24.876 Y135.547 E47.89499
G1 X23.921 Y134.664 E47.96820
G1 X22.996 Y133.751 E48.04141
G1 X22.101 Y132.807 E48.11462
G1 X21.237 Y131.835 E48.18782
G1 X20.100 Y130.452 E48.28864
G1 X18.934 Y128.889 E48.39844
G1 X17.845 Y127.270 E48.50826
G1 X16.679 Y124.733 E48.66549
G1 X16.276 Y121.951 E48.82374
G1 X16.276 Y80.468 E51.15924
G1 X16.316 Y79.220 E51.22950
G1 X16.417 Y78.114 E51.29202
G1 X16.579 Y77.016 E51.35455
G1 X16.870 Y75.655 E51.43286
G1 X17.170 Y74.586 E51.49540
G1 X17.628 Y73.279 E51.57338
G1 X18.178 Y72.001 E51.65169
G1 X18.814 Y70.770 E51.72968
G1 X19.537 Y69.582 E51.80799
G1 X20.173 Y68.672 E51.87052
G1 X21.037 Y67.589 E51.94851
G1 X21.783 Y66.766 E52.01104
G1 X22.762 Y65.813 E52.08796
G1 X23.624 Y65.074 E52.15187
G1 X24.506 Y64.400 E52.21439
G1 X25.658 Y63.631 E52.29238
G1 X26.866 Y62.941 E52.37071
G1 X27.883 Y62.443 E52.43446
G1 X28.115 Y62.832 F7800.000
G1 X29.053 Y62.438 E52.49172 F1500.000
G1 X30.075 Y62.072 E52.55284
G1 X30.845 Y61.839 E52.59815
G1 X31.898 Y61.575 E52.65925
G1 X32.964 Y61.370 E52.72035
G1 X33.779 Y61.255 E52.76671
G1 X34.835 Y61.158 E52.82642
G1 X35.664 Y61.123 E52.87313
G1 X147.662 Y61.120 E59.17859
G1 X148.419 Y61.155 E59.22126 F1500.000
G1 X149.033 Y61.215 E59.25599
G1 X150.049 Y61.379 E59.31393
G1 X150.802 Y61.555 E59.35747
G1 X151.379 Y61.722 E59.39131
G1 X152.349 Y62.070 E59.44929
G1 X153.057 Y62.380 E59.49284
G1 X153.970 Y62.858 E59.55080
G1 X154.820 Y63.389 E59.60727
G1 X170.047 Y73.782 E60.64521
G1 X171.578 Y74.939 E60.75322
G1 X172.681 Y75.850 E60.83379
G1 X174.108 Y77.133 E60.94182
G1 X175.471 Y78.484 E61.04985
G1 X176.766 Y79.900 E61.15788
G1 X177.991 Y81.377 E61.26592
G1 X179.058 Y82.792 E61.36572
G1 X180.139 Y84.376 E61.47368
G1 X180.815 Y85.458 E61.54548
G1 X181.217 Y86.140 E61.59003
G1 X181.765 Y87.125 E61.65352
G1 X182.353 Y88.262 E61.72556
G1 X182.698 Y88.974 E61.77011
G1 X183.225 Y90.139 E61.84212
G1 X183.659 Y91.180 E61.90561
G1 X184.114 Y92.376 E61.97765
G1 X184.376 Y93.123 E62.02220
G1 X184.768 Y94.340 E62.09422
G1 X185.081 Y95.424 E62.15772
G1 X185.397 Y96.659 E62.22949
G1 X185.798 Y98.540 E62.33778
G1 X186.012 Y99.797 E62.40955
G1 X186.126 Y100.584 E62.45435
G1 X186.260 Y101.713 E62.51833
G1 X186.372 Y102.974 E62.58962
G1 X186.464 Y104.901 E62.69821
G1 X186.473 Y106.170 E62.76968
G1 X186.458 Y106.966 E62.81448
G1 X186.409 Y108.099 E62.87831
G1 X186.314 Y109.377 E62.95047
G1 X186.179 Y110.636 E63.02179
G1 X186.074 Y111.425 E63.06658
G1 X185.898 Y112.539 E63.13008
G1 X185.659 Y113.796 E63.20210
G1 X185.381 Y115.040 E63.27387
G1 X185.187 Y115.812 E63.31869
G1 X184.885 Y116.902 E63.38239
G1 X184.507 Y118.120 E63.45420
G1 X184.036 Y119.471 E63.53475
G1 X183.387 Y121.116 E63.63426
G1 X182.809 Y122.424 E63.71482
G1 X182.029 Y124.010 E63.81432
G1 X181.346 Y125.268 E63.89488
G1 X180.443 Y126.782 E63.99413
G1 X179.741 Y127.861 E64.06661
G1 X178.922 Y129.030 E64.14698
G1 X177.851 Y130.435 E64.24648
G1 X176.938 Y131.537 E64.32704
G1 X175.753 Y132.854 E64.42675
G1 X174.756 Y133.875 E64.50711
G1 X173.472 Y135.089 E64.60660
G1 X172.393 Y136.029 E64.68716
G1 X171.014 Y137.135 E64.78667
G1 X169.863 Y137.984 E64.86722
G1 X168.271 Y139.057 E64.97526
G1 X166.658 Y140.035 E65.08149
G1 X117.795 Y167.839 E68.24666
G1 X115.253 Y168.828 E68.40022
G1 X112.533 Y169.041 E68.55378
G1 X111.099 Y168.830 E68.63537
G1 X55.946 Y156.301 E71.81962
G1 X52.644 Y154.835 E72.02300
G1 X28.173 Y137.641 E73.70677
G1 X27.149 Y136.865 E73.77915
G1 X26.150 Y136.055 E73.85154
G1 X25.178 Y135.214 E73.92392
G1 X24.234 Y134.341 E73.99630
G1 X23.319 Y133.438 E74.06868
G1 X22.434 Y132.505 E74.14107
G1 X21.580 Y131.544 E74.21345
G1 X20.758 Y130.556 E74.28583
G1 X20.060 Y129.663 E74.34963
G1 X19.299 Y128.626 E74.42201
G1 X18.223 Y127.026 E74.53059
G1 X17.092 Y124.544 E74.68415
G1 X16.726 Y121.951 E74.83159
G1 X16.726 Y80.468 E77.16709
G1 X16.750 Y79.513 E77.22083
G1 X16.834 Y78.431 E77.28192
G1 X17.022 Y77.097 E77.35778
G1 X17.307 Y75.762 E77.43467
G1 X17.601 Y74.717 E77.49579
G1 X18.046 Y73.445 E77.57164
G1 X18.468 Y72.445 E77.63274
G1 X19.077 Y71.223 E77.70963
G1 X19.762 Y70.062 E77.78549
G1 X20.371 Y69.164 E77.84660
G1 X21.030 Y68.301 E77.90770
G1 X21.925 Y67.270 E77.98458
G1 X22.878 Y66.318 E78.06045
G1 X23.909 Y65.422 E78.13734
G1 X24.772 Y64.763 E78.19844
G1 X25.892 Y64.015 E78.27430
G1 X27.078 Y63.337 E78.35121
G1 X28.067 Y62.853 E78.41319
G1 X28.299 Y63.243 F7800.000
G1 X29.219 Y62.856 E78.46938 F1500.000
G1 X30.217 Y62.499 E78.52907
G1 X30.963 Y62.273 E78.57297
G1 X31.992 Y62.015 E78.63265
G1 X33.033 Y61.815 E78.69233
G1 X33.835 Y61.701 E78.73797
G1 X34.891 Y61.605 E78.79766
G1 X35.926 Y61.569 E78.85596
G1 X147.652 Y61.570 E85.14608
G1 X148.388 Y61.603 E85.18758 F1500.000
G1 X148.981 Y61.662 E85.22114
G1 X149.957 Y61.820 E85.27677
G1 X150.690 Y61.991 E85.31914
G1 X151.635 Y62.282 E85.37482
G1 X152.337 Y62.552 E85.41716
G1 X152.867 Y62.788 E85.44987
G1 X153.743 Y63.246 E85.50550
G1 X154.567 Y63.761 E85.56019
G1 X169.787 Y74.149 E86.59765
G1 X171.300 Y75.293 E86.70443
G1 X172.387 Y76.190 E86.78377
G1 X173.797 Y77.459 E86.89057
G1 X175.145 Y78.794 E86.99736
G1 X176.330 Y80.085 E87.09605
G1 X177.547 Y81.540 E87.20285
G1 X178.694 Y83.057 E87.30993
G1 X179.759 Y84.616 E87.41621
G1 X180.754 Y86.239 E87.52341
G1 X181.370 Y87.341 E87.59446
G1 X181.731 Y88.029 E87.63820
G1 X182.231 Y89.039 E87.70167
G1 X182.755 Y90.185 E87.77261
G1 X183.242 Y91.350 E87.84368
G1 X183.523 Y92.074 E87.88741
G1 X183.903 Y93.130 E87.95063
G1 X184.293 Y94.326 E88.02145
G1 X184.810 Y96.160 E88.12871
G1 X185.103 Y97.387 E88.19971
G1 X185.263 Y98.147 E88.24344
G1 X185.468 Y99.251 E88.30668
G1 X185.661 Y100.503 E88.37799
G1 X185.812 Y101.749 E88.44867
G1 X185.886 Y102.527 E88.49265
G1 X185.965 Y103.654 E88.55625
G1 X186.014 Y104.904 E88.62670
G1 X186.012 Y106.810 E88.73398
G1 X185.960 Y108.065 E88.80469
G1 X185.907 Y108.844 E88.84867
G1 X185.803 Y109.966 E88.91208
G1 X185.648 Y111.222 E88.98332
G1 X185.454 Y112.465 E89.05417
G1 X185.314 Y113.229 E89.09790
G1 X185.085 Y114.326 E89.16099
G1 X184.789 Y115.555 E89.23219
G1 X184.269 Y117.387 E89.33941
G1 X183.829 Y118.718 E89.41833
G1 X183.212 Y120.359 E89.51700
G1 X182.663 Y121.656 E89.59632
G1 X181.916 Y123.242 E89.69502
G1 X181.332 Y124.364 E89.76622
G1 X180.640 Y125.591 E89.84555
G1 X179.718 Y127.082 E89.94422
G1 X178.928 Y128.249 E90.02355
G1 X177.888 Y129.660 E90.12223
G1 X177.007 Y130.759 E90.20155
G1 X175.855 Y132.081 E90.30026
G1 X174.888 Y133.105 E90.37956
G1 X173.634 Y134.330 E90.47825
G1 X172.587 Y135.272 E90.55758
G1 X171.240 Y136.389 E90.65609
G1 X170.229 Y137.163 E90.72773
G1 X169.208 Y137.893 E90.79842
G1 X168.561 Y138.331 E90.84240
G1 X167.496 Y139.013 E90.91360
G1 X166.435 Y139.644 E90.98310
G1 X117.572 Y167.448 E94.14826
G1 X115.089 Y168.404 E94.29806
G1 X111.199 Y168.392 E94.51705
G1 X56.046 Y155.862 E97.70130
G1 X52.903 Y154.467 E97.89490
G1 X28.559 Y137.366 E99.56984
G1 X27.543 Y136.602 E99.64140
G1 X26.552 Y135.805 E99.71296
G1 X25.588 Y134.977 E99.78452
G1 X24.683 Y134.147 E99.85364
G1 X24.091 Y133.575 E99.90000
G1 X23.201 Y132.667 E99.97156
G1 X22.341 Y131.731 E100.04311
G1 X21.512 Y130.768 E100.11467
G1 X20.715 Y129.778 E100.18623
G1 X20.036 Y128.879 E100.24964
G1 X19.302 Y127.842 E100.32118
G1 X18.601 Y126.782 E100.39275
G1 X17.507 Y124.356 E100.54255
G1 X17.176 Y121.951 E100.67926
G1 X17.176 Y80.468 E103.01476
G1 X17.199 Y79.532 E103.06743
G1 X17.281 Y78.475 E103.12710
G1 X17.423 Y77.425 E103.18678
G1 X17.678 Y76.141 E103.26051
G1 X18.024 Y74.871 E103.33460
G1 X18.375 Y73.844 E103.39566
G1 X18.876 Y72.634 E103.46940
G1 X19.474 Y71.435 E103.54486
G1 X20.007 Y70.518 E103.60455
G1 X20.734 Y69.430 E103.67828
G1 X21.377 Y68.587 E103.73797
G1 X22.256 Y67.575 E103.81343
G1 X23.182 Y66.649 E103.88716
G1 X24.194 Y65.770 E103.96263
G1 X25.037 Y65.127 E104.02231
G1 X26.126 Y64.399 E104.09604
G1 X27.290 Y63.734 E104.17153
G1 X28.251 Y63.264 E104.23173
G1 X28.483 Y63.653 F7800.000
G1 X29.385 Y63.274 E104.28686 F1500.000
G1 X30.360 Y62.926 E104.34513
G1 X31.082 Y62.707 E104.38760
G1 X32.086 Y62.455 E104.44586
G1 X33.102 Y62.259 E104.50412
G1 X33.892 Y62.148 E104.54905
G1 X34.923 Y62.054 E104.60732
G1 X35.957 Y62.019 E104.66558
G1 X147.641 Y62.020 E110.95338
G1 X148.357 Y62.052 E110.99374 F1500.000
G1 X148.930 Y62.109 E111.02612
G1 X149.864 Y62.260 E111.07943
G1 X150.577 Y62.426 E111.12064
G1 X151.483 Y62.705 E111.17399
G1 X152.166 Y62.968 E111.21517
G1 X152.677 Y63.196 E111.24671
G1 X153.516 Y63.635 E111.30003
G1 X154.313 Y64.133 E111.35292
G1 X169.527 Y74.516 E112.38992
G1 X171.022 Y75.647 E112.49546
G1 X172.092 Y76.530 E112.57357
G1 X173.486 Y77.784 E112.67914
G1 X174.818 Y79.104 E112.78470
G1 X176.084 Y80.487 E112.89027
