; generated by Slic3r 1.2.9 on 2018-03-19 at 12:27:59

; external perimeters extrusion width = 0.35mm
; perimeters extrusion width = 0.35mm
; infill extrusion width = 0.35mm
; solid infill extrusion width = 0.35mm
; top infill extrusion width = 0.35mm
; support material extrusion width = 0.35mm

M190 S108 ; set bed temperature
; start of custom G-code
M108 S255 ; turn on M2 fans
M201 X400 Y400 Z400 ; reduce max accel to reduce ringing
G28 ; home all axes
G1 Y50 Z0.3 F9600 ; move forward to avoid clips
G1 X205 Z 10 ; move off platform
M109 S 250 ; wait for hotend to reach temp
G1 Z0.4; position nozzle
G92 E0; zero extruder
G1 F225 E25 ; extrude
G92 E0 ; zero extruder
G1 X190 Z0.1 E1.0 F1200 ; slow wipe
G1 X180 Z0.25 ; lift
; end of custom G-code
G21 ; set units to millimeters
G90 ; use absolute coordinates
M82 ; use absolute distances for extrusion
G92 E0
G1 Z0.350 F7800.000
G1 E-2.00000 F2400.00000
G92 E0
G1 X55.436 Y95.227 F7800.000
G1 E2.00000 F2400.00000
M204 S500
G1 X56.199 Y94.801 E2.04918 F1500.000
G1 X57.359 Y94.199 E2.12278
G1 X58.485 Y93.664 E2.19294
G1 X59.578 Y93.188 E2.26006
G1 X60.641 Y92.765 E2.32449
G1 X61.705 Y92.379 E2.38819
G1 X63.088 Y91.933 E2.47003
G1 X64.228 Y91.609 E2.53676
G1 X65.204 Y91.364 E2.59339
G1 X66.508 Y91.080 E2.66853
G1 X67.903 Y90.831 E2.74830
G1 X68.963 Y90.679 E2.80861
G1 X69.905 Y90.570 E2.86196
G1 X71.253 Y90.456 E2.93814
G1 X72.573 Y90.394 E3.01251
G1 X73.864 Y90.379 E3.08525
G1 X130.646 Y91.813 E6.28304 F1500.000
G1 X131.874 Y91.871 E6.35229
G1 X133.129 Y91.975 E6.42316
G1 X133.962 Y92.069 E6.47037
G1 X135.182 Y92.242 E6.53976
G1 X137.038 Y92.591 E6.64609
G1 X138.086 Y92.834 E6.70666
G1 X139.303 Y93.159 E6.77753
G1 X140.106 Y93.400 E6.82472
G1 X141.276 Y93.787 E6.89413
G1 X142.286 Y94.159 E6.95472
G1 X143.452 Y94.633 E7.02560
G1 X144.195 Y94.961 E7.07134
G1 X145.332 Y95.503 E7.14219
G1 X146.998 Y96.391 E7.24852
G1 X147.926 Y96.936 E7.30909
G1 X148.989 Y97.610 E7.37997
G1 X150.177 Y98.427 E7.46115
G1 X151.680 Y99.570 E7.56745
G1 X153.119 Y100.792 E7.67374
G1 X154.362 Y101.960 E7.76976
G1 X155.367 Y102.994 E7.85094
G1 X156.618 Y104.408 E7.95723
G1 X157.792 Y105.887 E8.06354
G1 X158.782 Y107.276 E8.15957
G1 X159.566 Y108.486 E8.24074
G1 X160.517 Y110.117 E8.34703
G1 X161.379 Y111.796 E8.45331
G1 X162.080 Y113.352 E8.54936
G1 X162.613 Y114.691 E8.63054
G1 X163.227 Y116.477 E8.73684
G1 X163.699 Y118.116 E8.83284
G1 X164.128 Y119.954 E8.93915
G1 X164.458 Y121.813 E9.04546
G1 X164.643 Y123.243 E9.12664
G1 X164.796 Y125.125 E9.23293
G1 X164.848 Y126.830 E9.32894
G1 X164.828 Y128.272 E9.41013
G1 X164.712 Y130.155 E9.51637
G1 X164.520 Y131.851 E9.61244
G1 X164.213 Y133.714 E9.71874
G1 X163.806 Y135.558 E9.82504
G1 X163.429 Y136.949 E9.90623
G1 X162.911 Y138.574 E10.00223
G1 X162.246 Y140.341 E10.10854
G1 X161.675 Y141.665 E10.18972
G1 X160.846 Y143.362 E10.29602
G1 X160.020 Y144.854 E10.39203
G1 X159.023 Y146.457 E10.49833
G1 X157.941 Y148.005 E10.60464
G1 X156.778 Y149.493 E10.71094
G1 X155.537 Y150.916 E10.81726
G1 X154.222 Y152.270 E10.92355
G1 X152.836 Y153.553 E11.02986
G1 X151.383 Y154.759 E11.13618
G1 X149.868 Y155.886 E11.24247
G1 X148.295 Y156.930 E11.34878
G1 X146.668 Y157.888 E11.45509
G1 X144.992 Y158.758 E11.56140
G1 X143.272 Y159.536 E11.66770
G1 X141.512 Y160.222 E11.77401
G1 X139.719 Y160.812 E11.88031
G1 X137.896 Y161.305 E11.98661
G1 X136.050 Y161.701 E12.09293
G1 X134.185 Y161.996 E12.19923
G1 X132.934 Y162.138 E12.27011
G1 X131.991 Y162.197 E12.32327
G1 X71.319 Y163.618 E15.74004
G1 X70.557 Y163.587 E15.78296
G1 X70.023 Y163.542 E15.81315
G1 X68.951 Y163.423 E15.87390
G1 X68.027 Y163.293 E15.92642
G1 X66.431 Y163.012 E16.01763
G1 X64.610 Y162.602 E16.12272
G1 X62.998 Y162.156 E16.21690
G1 X61.296 Y161.597 E16.31776
G1 X59.508 Y160.908 E16.42562
G1 X58.038 Y160.250 E16.51631
G1 X56.313 Y159.385 E16.62495
G1 X55.735 Y159.077 E16.66180
G1 X54.700 Y158.477 E16.72917
G1 X53.746 Y157.884 E16.79242
G1 X52.656 Y157.153 E16.86630
G1 X51.509 Y156.322 E16.94602
G1 X50.597 Y155.610 E17.01119
G1 X49.663 Y154.831 E17.07965
G1 X48.754 Y154.020 E17.14821
G1 X47.850 Y153.157 E17.21859
G1 X46.992 Y152.281 E17.28763
G1 X46.147 Y151.358 E17.35806
G1 X45.327 Y150.398 E17.42915
G1 X44.533 Y149.399 E17.50101
G1 X43.767 Y148.365 E17.57344
G1 X43.124 Y147.433 E17.63718
G1 X42.402 Y146.307 E17.71251
G1 X41.867 Y145.408 E17.77138
G1 X41.241 Y144.276 E17.84423
G1 X40.743 Y143.306 E17.90560
G1 X40.192 Y142.135 E17.97846
G1 X39.734 Y141.073 E18.04361
G1 X39.231 Y139.786 E18.12141
G1 X38.824 Y138.620 E18.19093
G1 X38.383 Y137.191 E18.27513
G1 X38.084 Y136.085 E18.33964
G1 X37.807 Y134.907 E18.40775
G1 X37.564 Y133.689 E18.47766
G1 X37.353 Y132.405 E18.55095
G1 X37.180 Y131.045 E18.62810
G1 X37.052 Y129.576 E18.71114
G1 X37.000 Y128.595 E18.76643
G1 X36.970 Y127.196 E18.84523
G1 X36.979 Y126.309 E18.89518
G1 X37.024 Y125.134 E18.96135
G1 X37.092 Y124.136 E19.01770
G1 X37.195 Y123.076 E19.07763
G1 X37.340 Y121.933 E19.14253
G1 X37.544 Y120.671 E19.21448
G1 X37.828 Y119.251 E19.29602
G1 X38.244 Y117.558 E19.39414
G1 X38.681 Y116.071 E19.48140
G1 X38.961 Y115.249 E19.53033
G1 X40.025 Y112.510 E19.69573
G1 X40.416 Y111.630 E19.74993
G1 X41.400 Y109.666 E19.87364
G1 X41.875 Y108.820 E19.92824
G1 X43.423 Y106.348 E20.09246
G1 X43.914 Y105.632 E20.14133
G1 X45.168 Y103.985 E20.25790
G1 X46.233 Y102.723 E20.35083
G1 X47.170 Y101.704 E20.42880
G1 X48.042 Y100.821 E20.49866
G1 X48.866 Y100.038 E20.56264
G1 X50.164 Y98.900 E20.65982
G1 X51.093 Y98.149 E20.72708
G1 X52.269 Y97.266 E20.80990
G1 X53.123 Y96.670 E20.86853
G1 X54.213 Y95.960 E20.94175
G1 X55.391 Y95.253 E21.01908
G1 X55.663 Y95.616 F7800.000
G1 X56.411 Y95.198 E21.06731 F1500.000
G1 X57.557 Y94.603 E21.14002
G1 X58.669 Y94.075 E21.20931
G1 X59.748 Y93.604 E21.27562
G1 X60.799 Y93.186 E21.33928
G1 X61.849 Y92.805 E21.40217
G1 X63.220 Y92.363 E21.48328
G1 X64.342 Y92.044 E21.54893
G1 X65.306 Y91.803 E21.60487
G1 X66.598 Y91.521 E21.67934
G1 X67.976 Y91.275 E21.75816
G1 X69.019 Y91.126 E21.81748
G1 X69.948 Y91.018 E21.87012
G1 X71.280 Y90.906 E21.94535
G1 X72.583 Y90.844 E22.01881
G1 X73.859 Y90.829 E22.09065
G1 X130.634 Y92.263 E25.28811 F1500.000
G1 X131.848 Y92.320 E25.35653
G1 X132.642 Y92.381 E25.40137
G1 X133.704 Y92.490 E25.46148
G1 X134.520 Y92.597 E25.50777
G1 X135.721 Y92.790 E25.57630
G1 X136.769 Y92.994 E25.63641
G1 X137.547 Y93.167 E25.68125
G1 X138.751 Y93.472 E25.75121
G1 X139.944 Y93.820 E25.82117
G1 X140.959 Y94.154 E25.88132
G1 X141.709 Y94.422 E25.92615
G1 X142.866 Y94.875 E25.99610
G1 X143.847 Y95.298 E26.05624
G1 X144.593 Y95.643 E26.10255
G1 X145.682 Y96.187 E26.17105
G1 X146.622 Y96.695 E26.23118
G1 X147.312 Y97.092 E26.27600
G1 X148.370 Y97.743 E26.34597
G1 X149.770 Y98.689 E26.44108
G1 X151.259 Y99.810 E26.54603
G1 X152.351 Y100.715 E26.62585
G1 X153.728 Y101.971 E26.73080
G1 X154.917 Y103.171 E26.82590
G1 X156.159 Y104.561 E26.93085
G1 X157.053 Y105.662 E27.01067
G1 X158.158 Y107.162 E27.11561
G1 X159.182 Y108.720 E27.22058
G1 X160.037 Y110.177 E27.31567
G1 X160.699 Y111.431 E27.39550
G1 X161.490 Y113.119 E27.50045
G1 X162.190 Y114.846 E27.60539
G1 X162.744 Y116.442 E27.70050
G1 X163.264 Y118.232 E27.80544
G1 X163.595 Y119.611 E27.88526
G1 X163.916 Y121.269 E27.98036
G1 X164.176 Y123.115 E28.08531
G1 X164.337 Y124.972 E28.19026
G1 X164.393 Y126.389 E28.27008
G1 X164.384 Y128.078 E28.36518
G1 X164.279 Y129.939 E28.47013
G1 X164.129 Y131.375 E28.55140
G1 X163.852 Y133.193 E28.65490
G1 X163.474 Y135.018 E28.75985
G1 X163.047 Y136.652 E28.85495
G1 X162.485 Y138.429 E28.95990
G1 X161.994 Y139.759 E29.03971
G1 X161.339 Y141.316 E29.13482
G1 X160.529 Y142.996 E29.23977
G1 X159.841 Y144.265 E29.32106
G1 X158.889 Y145.838 E29.42454
G1 X157.841 Y147.379 E29.52949
G1 X156.712 Y148.862 E29.63444
G1 X155.505 Y150.282 E29.73935
G1 X154.223 Y151.637 E29.84434
G1 X152.871 Y152.920 E29.94929
G1 X151.452 Y154.129 E30.05423
G1 X149.971 Y155.260 E30.15919
G1 X148.431 Y156.311 E30.26414
G1 X146.837 Y157.277 E30.36904
G1 X145.193 Y158.157 E30.47404
G1 X143.505 Y158.947 E30.57899
G1 X141.777 Y159.646 E30.68394
G1 X140.014 Y160.251 E30.78888
G1 X138.221 Y160.761 E30.89383
G1 X136.403 Y161.174 E30.99875
G1 X134.566 Y161.490 E31.10371
G1 X132.888 Y161.690 E31.19883
G1 X131.981 Y161.747 E31.25004
G1 X71.321 Y163.168 E34.66612
G1 X70.592 Y163.138 E34.70716
G1 X70.068 Y163.095 E34.73676
G1 X69.005 Y162.976 E34.79702
G1 X68.096 Y162.848 E34.84867
G1 X66.521 Y162.571 E34.93872
G1 X64.719 Y162.165 E35.04271
G1 X63.130 Y161.726 E35.13554
G1 X61.444 Y161.172 E35.23541
G1 X59.679 Y160.491 E35.34196
G1 X58.239 Y159.848 E35.43072
G1 X56.514 Y158.983 E35.53935
G1 X55.952 Y158.682 E35.57527
G1 X54.930 Y158.091 E35.64172
G1 X53.987 Y157.504 E35.70425
G1 X52.915 Y156.785 E35.77695
G1 X51.779 Y155.962 E35.85594
G1 X50.877 Y155.258 E35.92033
G1 X49.956 Y154.489 E35.98789
G1 X49.059 Y153.689 E36.05555
G1 X48.167 Y152.838 E36.12498
G1 X47.320 Y151.973 E36.19315
G1 X46.486 Y151.062 E36.26267
G1 X45.676 Y150.114 E36.33286
G1 X44.891 Y149.128 E36.40382
G1 X44.135 Y148.106 E36.47535
G1 X43.497 Y147.181 E36.53863
G1 X42.784 Y146.069 E36.61303
G1 X42.258 Y145.185 E36.67094
G1 X41.637 Y144.064 E36.74307
G1 X41.148 Y143.110 E36.80343
G1 X40.601 Y141.949 E36.87569
G1 X40.151 Y140.904 E36.93976
G1 X39.652 Y139.627 E37.01690
G1 X39.252 Y138.481 E37.08527
G1 X38.815 Y137.065 E37.16872
G1 X38.520 Y135.972 E37.23245
G1 X38.246 Y134.809 E37.29970
G1 X38.006 Y133.606 E37.36877
G1 X37.798 Y132.337 E37.44117
G1 X37.627 Y130.994 E37.51739
G1 X37.501 Y129.543 E37.59940
G1 X37.450 Y128.581 E37.65364
G1 X37.420 Y127.191 E37.73190
G1 X37.429 Y126.315 E37.78121
G1 X37.473 Y125.163 E37.84613
G1 X37.540 Y124.177 E37.90175
G1 X37.641 Y123.131 E37.96093
G1 X37.785 Y122.002 E38.02501
G1 X37.986 Y120.756 E38.09603
G1 X38.266 Y119.355 E38.17650
G1 X38.676 Y117.685 E38.27328
G1 X39.113 Y116.198 E38.36055
G1 X39.380 Y115.412 E38.40733
G1 X40.445 Y112.673 E38.57273
G1 X40.818 Y111.832 E38.62455
G1 X41.803 Y109.867 E38.74826
G1 X42.257 Y109.059 E38.80046
G1 X43.804 Y106.587 E38.96468
G1 X44.274 Y105.902 E39.01141
G1 X45.514 Y104.273 E39.12668
G1 X46.565 Y103.026 E39.21851
G1 X47.492 Y102.018 E39.29558
G1 X48.353 Y101.146 E39.36461
G1 X49.167 Y100.373 E39.42780
G1 X50.456 Y99.242 E39.52434
G1 X51.367 Y98.506 E39.59029
G1 X52.535 Y97.629 E39.67253
G1 X53.373 Y97.045 E39.73001
G1 X54.455 Y96.340 E39.80272
G1 X55.617 Y95.642 E39.87905
G1 X55.889 Y96.004 F7800.000
G1 X56.623 Y95.595 E39.92634 F1500.000
G1 X57.755 Y95.007 E39.99814
G1 X58.852 Y94.485 E40.06658
G1 X59.919 Y94.021 E40.13207
G1 X60.957 Y93.608 E40.19495
G1 X61.993 Y93.231 E40.25704
G1 X63.352 Y92.793 E40.33742
G1 X64.455 Y92.480 E40.40199
G1 X65.407 Y92.241 E40.45724
G1 X66.688 Y91.962 E40.53104
G1 X68.049 Y91.719 E40.60890
G1 X69.075 Y91.572 E40.66723
G1 X69.991 Y91.465 E40.71916
G1 X71.306 Y91.355 E40.79345
G1 X72.593 Y91.294 E40.86599
G1 X73.853 Y91.279 E40.93694
G1 X130.623 Y92.712 E44.13408 F1500.000
G1 X131.822 Y92.769 E44.20166
G1 X132.600 Y92.828 E44.24559
G1 X133.820 Y92.957 E44.31465
G1 X134.870 Y93.104 E44.37433
G1 X135.639 Y93.232 E44.41826
G1 X136.843 Y93.470 E44.48733
G1 X137.875 Y93.709 E44.54699
G1 X139.060 Y94.026 E44.61606
G1 X140.815 Y94.580 E44.71965
G1 X141.550 Y94.843 E44.76359
G1 X142.692 Y95.290 E44.83263
G1 X143.666 Y95.709 E44.89232
G1 X144.397 Y96.048 E44.93771
G1 X145.472 Y96.584 E45.00532
G1 X146.404 Y97.088 E45.06499
G1 X147.463 Y97.707 E45.13405
G1 X148.125 Y98.121 E45.17797
G1 X149.511 Y99.057 E45.27218
G1 X150.982 Y100.164 E45.37578
G1 X152.055 Y101.053 E45.45424
G1 X153.414 Y102.293 E45.55783
G1 X154.706 Y103.604 E45.66142
G1 X155.817 Y104.854 E45.75562
G1 X156.696 Y105.936 E45.83408
G1 X157.787 Y107.417 E45.93766
G1 X158.710 Y108.813 E46.03187
G1 X159.645 Y110.398 E46.13547
G1 X160.295 Y111.630 E46.21394
G1 X161.077 Y113.296 E46.31753
G1 X161.709 Y114.845 E46.41172
G1 X162.316 Y116.582 E46.51532
G1 X162.830 Y118.349 E46.61890
G1 X163.155 Y119.704 E46.69737
G1 X163.500 Y121.512 E46.80096
G1 X163.730 Y123.169 E46.89516
G1 X163.888 Y125.002 E46.99875
G1 X163.943 Y126.395 E47.07721
G1 X163.934 Y128.068 E47.17141
G1 X163.830 Y129.905 E47.27500
G1 X163.682 Y131.317 E47.35491
G1 X163.410 Y133.110 E47.45706
G1 X163.074 Y134.749 E47.55126
G1 X162.614 Y136.531 E47.65485
G1 X162.059 Y138.285 E47.75844
G1 X161.576 Y139.592 E47.83689
G1 X160.927 Y141.135 E47.93109
G1 X160.128 Y142.792 E48.03469
G1 X159.451 Y144.040 E48.11461
G1 X158.512 Y145.592 E48.21674
G1 X157.478 Y147.114 E48.32034
G1 X156.363 Y148.578 E48.42393
G1 X155.172 Y149.980 E48.52749
G1 X153.907 Y151.317 E48.63112
G1 X152.572 Y152.583 E48.73471
G1 X151.172 Y153.777 E48.83829
G1 X149.710 Y154.894 E48.94190
G1 X148.190 Y155.931 E49.04549
G1 X146.617 Y156.884 E49.14903
G1 X144.994 Y157.753 E49.25268
G1 X143.328 Y158.533 E49.35627
G1 X141.622 Y159.223 E49.45986
G1 X139.882 Y159.821 E49.56345
G1 X138.112 Y160.325 E49.66704
G1 X136.318 Y160.733 E49.77061
G1 X134.505 Y161.044 E49.87421
G1 X132.843 Y161.243 E49.96843
G1 X131.970 Y161.298 E50.01767
G1 X71.322 Y162.718 E53.43307
G1 X70.114 Y162.647 E53.50122
G1 X69.059 Y162.529 E53.56099
G1 X68.165 Y162.404 E53.61178
G1 X66.610 Y162.130 E53.70067
G1 X64.827 Y161.729 E53.80355
G1 X63.262 Y161.296 E53.89502
G1 X61.593 Y160.747 E53.99392
G1 X59.849 Y160.075 E54.09915
G1 X58.441 Y159.446 E54.18597
G1 X56.716 Y158.581 E54.29460
G1 X56.168 Y158.288 E54.32959
G1 X55.161 Y157.704 E54.39513
G1 X54.228 Y157.125 E54.45694
G1 X53.173 Y156.417 E54.52845
G1 X52.048 Y155.601 E54.60670
G1 X51.157 Y154.906 E54.67032
G1 X50.248 Y154.148 E54.73697
G1 X49.363 Y153.358 E54.80374
G1 X48.484 Y152.518 E54.87222
G1 X47.647 Y151.664 E54.93952
G1 X46.824 Y150.765 E55.00814
G1 X46.025 Y149.830 E55.07742
G1 X45.250 Y148.856 E55.14748
G1 X44.503 Y147.847 E55.21812
G1 X43.870 Y146.929 E55.28093
G1 X43.166 Y145.830 E55.35440
G1 X42.648 Y144.961 E55.41134
G1 X42.034 Y143.852 E55.48275
G1 X41.553 Y142.913 E55.54211
G1 X41.011 Y141.762 E55.61378
G1 X40.568 Y140.734 E55.67676
G1 X40.073 Y139.469 E55.75324
G1 X39.679 Y138.342 E55.82045
G1 X39.246 Y136.938 E55.90317
G1 X38.955 Y135.859 E55.96612
G1 X38.685 Y134.711 E56.03251
G1 X38.448 Y133.522 E56.10073
G1 X38.243 Y132.269 E56.17225
G1 X38.074 Y130.942 E56.24753
G1 X37.950 Y129.509 E56.32851
G1 X37.899 Y128.566 E56.38170
G1 X37.870 Y127.186 E56.45941
G1 X37.879 Y126.321 E56.50810
G1 X37.922 Y125.191 E56.57176
G1 X37.988 Y124.219 E56.62665
G1 X38.088 Y123.186 E56.68507
G1 X38.230 Y122.071 E56.74833
G1 X38.427 Y120.842 E56.81843
G1 X38.703 Y119.459 E56.89784
G1 X39.107 Y117.812 E56.99328
G1 X39.544 Y116.325 E57.08055
G1 X39.800 Y115.575 E57.12518
G1 X40.864 Y112.836 E57.29058
G1 X41.220 Y112.033 E57.34002
G1 X42.205 Y110.069 E57.46374
G1 X42.638 Y109.298 E57.51354
G1 X44.186 Y106.825 E57.67776
G1 X44.634 Y106.173 E57.72234
G1 X45.859 Y104.561 E57.83632
G1 X46.898 Y103.329 E57.92704
G1 X47.813 Y102.333 E58.00320
G1 X48.664 Y101.471 E58.07140
G1 X49.468 Y100.707 E58.13382
G1 X50.748 Y99.584 E58.22971
G1 X51.641 Y98.863 E58.29434
G1 X52.801 Y97.991 E58.37601
G1 X53.622 Y97.419 E58.43234
G1 X54.697 Y96.719 E58.50453
G1 X55.844 Y96.031 E58.57987
G1 X56.116 Y96.393 F7800.000
G1 X56.835 Y95.992 E58.62621 F1500.000
G1 X57.952 Y95.412 E58.69711
G1 X59.036 Y94.896 E58.76469
G1 X60.089 Y94.437 E58.82937
G1 X61.114 Y94.029 E58.89148
G1 X62.137 Y93.657 E58.95275
G1 X63.484 Y93.223 E59.03241
G1 X64.569 Y92.915 E59.09589
G1 X65.509 Y92.679 E59.15046
G1 X66.778 Y92.402 E59.22359
G1 X68.123 Y92.163 E59.30050
G1 X69.131 Y92.018 E59.35784
G1 X70.034 Y91.913 E59.40906
G1 X71.333 Y91.804 E59.48240
